!!!!SEGMENT: pl-sa--243-a-vii-3--dublet_szczurowski-jacek--motetto-de-bmv-memento-rerum-conditor-dublet.krn
!!!cenid: 17xx:260b
!!!COM: Szczurowski, Jacek
!!!COM-rismID: pe30017605
!!!CDT: 1716/08/15-~1733
!!!CNT: Polish
!!!OTL: Motetto de BMV Memento rerum conditor - dublet
!!!PDT: 1741
!!!AGN: Sacred
!!!SMS-siglum: PL-SA
!!!SMS-shelfmark: 243/A VII 3
!!!SMS-shelfwork: W
!!!SMS-variant:
!!!SMS-altvar:
!!!NIFC-rismSourceID: 1001035381
!!!NIFC-rismChildID: 1001035381
!!!NIFC-islandoraID: none
!!!URL-pdf-islandora:
!!!URL-scan: https://bc.bdsandomierz.pl/dlibra/publication/1595/edition/1563/content @EN{Scan in the Sandomierz Diocese Digital Library} @PL{Skany w portalu Cyfrowa Biblioteka Diecezjalna w Sandomierzu}
!!!ONB-nifc:
!!!AIN: 1 alto 1 bass 2 cor 1 soprn 1 tenor 1 violb 2 violn
!!!key: D
**kern	**fba	**kern	**kern	**kern	**text	**kern	**text	**kern	**text	**kern	**text	**kern	**kern
*part9	*part9	*part8	*part7	*part6	*part6	*part5	*part5	*part4	*part4	*part3	*part3	*part2	*part1
*staff9	*	*staff8	*staff7	*staff6	*staff6	*staff5	*staff5	*staff4	*staff4	*staff3	*staff3	*staff2	*staff1
*I"Baſso Viola	*	*I"Violino 2do	*I"Violino Imo	*I"Baſso	*	*I"Tenore	*	*I"Alto	*	*I"Canto	*	*I"Valthorno 2do Ex D.	*I"Valthorno 1mo Ex D.
*I'b-vla	*	*I'vl II	*I'vl I	*I'B	*	*I'T	*	*I'A	*	*I'S	*	*I'cor II	*I'cor I
*ICstr	*	*ICstr	*ICstr	*ICvox	*	*ICvox	*	*ICvox	*	*ICvox	*	*ICbras	*ICbras
*Iviolb	*	*Ivioln	*Ivioln	*Ibass	*	*Itenor	*	*Ialto	*	*Isoprn	*	*Icor	*Icor
*clefF4	*	*clefG2	*clefG2	*clefF4	*	*clefC4	*	*clefC3	*	*clefC1	*	*clefG2	*clefG2
*D:	*	*D:	*D:	*D:	*	*D:	*	*D:	*	*D:	*	*D:	*D:
*ITrd0c0	*	*	*	*	*	*	*	*	*	*	*	*ITrd6c10	*ITrd6c10
*k[f#f#c#]	*	*k[f#c#]	*k[f#f#c#]	*k[f#f#c#]	*	*k[f#c#]	*	*k[f#c#]	*	*k[f#c#]	*	*k[f#c#]	*k[f#c#]
*M4/4	*	*M4/4	*M4/4	*M4/4	*	*M4/4	*	*M4/4	*	*M4/4	*	*M4/4	*M4/4
*met(c)	*	*met(c)	*met(c)	*met(c)	*	*met(c)	*	*met(c)	*	*met(c)	*	*met(c)	*met(c)
=1	=1	=1	=1	=1	=1	=1	=1	=1	=1	=1	=1	=1	=1
*2\right	*	*	*	*	*	*	*	*2\right	*	*	*	*2\right	*2\right
!LO:TX:t=P:problem=podwójony znak przykluczowy fis	!	!	!LO:TX:b:t=Memento rerum conditor	!	!	!	!	!	!	!	!	!	!
!LO:TX:b:t=Memento	!	!LO:TX:b:t=Memento rerum Conditor	!LO:TX:t=P:problem=podwójony znak przykluczowy fis	!LO:TX:t=P:problem=podwójony znak przykluczowy fis	!	!	!	!	!	!	!	!LO:TX:b:t=Memento rerum Conditor	!LO:TX:b:t=Memento rerum Conditor
4d\	.	4ff#\	4aa\	1r	.	1r	.	1r	.	1r	.	4f#\	4a\
4r	.	8r	8r	.	.	.	.	.	.	.	.	8r	8r
.	.	16ff#\LL	16aa\LL	.	.	.	.	.	.	.	.	16f#\LL	16a\LL
.	.	16ee\JJ	16gg\JJ	.	.	.	.	.	.	.	.	16e\JJ	16g\JJ
8r	.	8dd\L	8ff#\L	.	.	.	.	.	.	.	.	8e\	8f#\
16A\LL	.	16cc#\L	16ee\L	.	.	.	.	.	.	.	.	8r	8r
16G\JJ	.	16b\JJ	16dd\JJ	.	.	.	.	.	.	.	.	.	.
8F#\L	.	8a/L	8cc#\L	.	.	.	.	.	.	.	.	4r	4r
16E\L	.	8a/J	16b\L	.	.	.	.	.	.	.	.	.	.
16D\JJ	.	.	16a\JJ	.	.	.	.	.	.	.	.	.	.
=2	=2	=2	=2	=2	=2	=2	=2	=2	=2	=2	=2	=2	=2
4C#/	.	8r	8r	1r	.	1r	.	1r	.	1r	.	8r	8r
.	.	16ff#\LL	16aa\LL	.	.	.	.	.	.	.	.	16f#\LL	16a\LL
.	.	16ee\JJ	16gg\JJ	.	.	.	.	.	.	.	.	16e\JJ	16g\JJ
!LO:N:vis=4	!	!	!	!	!	!	!	!	!	!	!	!LO:TX:t=P:problem=mixed beam	!
8AA/	.	8dd\L	8ff#\L	.	.	.	.	.	.	.	.	8d/L	8f#\L
!LO:N:vis=4	!	!	!	!	!	!	!	!	!	!	!	!	!
8r	.	16cc#\L	16ee\L	.	.	.	.	.	.	.	.	16A/L	16e\L
.	.	16b\JJ	16dd\JJ	.	.	.	.	.	.	.	.	16F#/JJ	16d\JJ
!	!	!	!	!	!	!	!	!	!	!	!	!LO:TX:t=P:problem=mixed beam	!
8AA/L	.	8cc#\L	8ee\L	.	.	.	.	.	.	.	.	8A\L	8e\L
8BB/	.	8cc#\	8ee\	.	.	.	.	.	.	.	.	8A\	8e\
8C#/	.	8cc#\	8ee\	.	.	.	.	.	.	.	.	8A\	8e\
8D/J	.	8ff#\J	8aa\J	.	.	.	.	.	.	.	.	8f#\J	8a\J
=3	=3	=3	=3	=3	=3	=3	=3	=3	=3	=3	=3	=3	=3
4G\	.	16gg\LL	16bb\LL	1r	.	1r	.	1r	.	1r	.	8g\L	8b\L
.	.	16gg\	16bb\	.	.	.	.	.	.	.	.	.	.
.	.	16gg\	16bb\	.	.	.	.	.	.	.	.	8g\	8b\
.	.	16gg\JJ	16bb\JJ	.	.	.	.	.	.	.	.	.	.
8r	.	16gg\LL	16bb\LL	.	.	.	.	.	.	.	.	8g\	8b\
.	.	16gg\	16bb\	.	.	.	.	.	.	.	.	.	.
8G\	.	16gg\	16bb\	.	.	.	.	.	.	.	.	8g\J	8b\J
.	.	16gg\JJ	16bb\JJ	.	.	.	.	.	.	.	.	.	.
4C#X/	5	16e/LL	16b/LL	.	.	.	.	.	.	.	.	2r	2r
.	.	16e/	16b/	.	.	.	.	.	.	.	.	.	.
.	.	16e/	16b/	.	.	.	.	.	.	.	.	.	.
.	.	16e/JJ	16b/JJ	.	.	.	.	.	.	.	.	.	.
8r	.	16e/LL	16b/LL	.	.	.	.	.	.	.	.	.	.
.	.	16e/	16b/	.	.	.	.	.	.	.	.	.	.
8C#X/	.	16e/	16b/	.	.	.	.	.	.	.	.	.	.
.	.	16e/JJ	16b/JJ	.	.	.	.	.	.	.	.	.	.
=4	=4	=4	=4	=4	=4	=4	=4	=4	=4	=4	=4	=4	=4
4F#\	.	16ff#\LL	16aa\LL	1r	.	1r	.	1r	.	1r	.	8f#\L	8a\L
.	.	16ff#\	16aa\	.	.	.	.	.	.	.	.	.	.
.	.	16ff#\	16aa\	.	.	.	.	.	.	.	.	8f#\	8a\
.	.	16ff#\JJ	16aa\JJ	.	.	.	.	.	.	.	.	.	.
8r	.	16ff#\LL	16aa\LL	.	.	.	.	.	.	.	.	8f#\	8a\
.	.	16ff#\	16aa\	.	.	.	.	.	.	.	.	.	.
8F#\	.	16ff#\	16aa\	.	.	.	.	.	.	.	.	8f#\J	8a\J
.	.	16ff#\JJ	16aa\JJ	.	.	.	.	.	.	.	.	.	.
*	*	*	*custos:f#	*	*	*	*	*	*	*	*	*	*
4D/	.	16d/LL	16f#/LL	.	.	.	.	.	.	.	.	2r	2r
.	.	16d/	16f#/	.	.	.	.	.	.	.	.	.	.
.	.	16d/	16f#/	.	.	.	.	.	.	.	.	.	.
.	.	16d/JJ	16f#/JJ	.	.	.	.	.	.	.	.	.	.
!	!	!	!LO:LB:g=original	!	!	!	!	!	!	!	!	!	!
8r	.	16d/LL	16f#/LL	.	.	.	.	.	.	.	.	.	.
.	.	16d/	16f#/	.	.	.	.	.	.	.	.	.	.
8D/	.	16d/	16f#/	.	.	.	.	.	.	.	.	.	.
.	.	16d/JJ	16f#/JJ	.	.	.	.	.	.	.	.	.	.
=5	=5	=5	=5	=5	=5	=5	=5	=5	=5	=5	=5	=5	=5
8D\L	.	8ff#\L	8aa\L	2r	.	2r	.	2r	.	2r	.	8f#\L	8a\L
16F#\L	6	16ee\L	16gg\L	.	.	.	.	.	.	.	.	16e\L	16g\L
16G\JJ	6 5	16dd\JJ	16ff#\JJ	.	.	.	.	.	.	.	.	16d\JJ	16f#\JJ
!LO:TX:t=P:problem=mixed beam	!	!	!	!	!	!	!	!	!	!	!	!	!
8A\L	.	8cc#\L	8ee\L	.	.	.	.	.	.	.	.	8A/L	8e\L
8AA\J	4:3	8cc#\J	8ee\J	.	.	.	.	.	.	.	.	8A/J	8e\J
4D/	.	4dd\	4dd\	8r	.	8r	.	8r	.	8r	.	4F#/	4d\
.	.	.	.	8d\	Me-	8d\	Me-	8a\	Me-	8ff#\	Me-	.	.
8r	.	8r	8r	8D/	-men-	8d\	-men-	8a\	-men-	8ff#\	-men-	8r	8r
!	!	!LO:LB:g=original	!	!	!	!	!	!	!	!	!	!	!
8D/	.	8ff#\	8aa\	8D/	-to	8d\	-to	8a\	-to	8ff#\	-to	8f#\	8a\
=6	=6	=6	=6	=6	=6	=6	=6	=6	=6	=6	=6	=6	=6
4G\	.	16gg\LL	16bb\LL	1r	.	1r	.	1r	.	1r	.	8g\L	8b\L
.	.	16gg\	16bb\	.	.	.	.	.	.	.	.	.	.
.	.	16gg\	16bb\	.	.	.	.	.	.	.	.	8g\	8b\
.	.	16gg\JJ	16bb\JJ	.	.	.	.	.	.	.	.	.	.
8r	.	16gg\LL	16bb\LL	.	.	.	.	.	.	.	.	8g\	8b\
.	.	16gg\	16bb\	.	.	.	.	.	.	.	.	.	.
8G\	.	16gg\	16bb\	.	.	.	.	.	.	.	.	8g\J	8b\J
.	.	16gg\JJ	16bb\JJ	.	.	.	.	.	.	.	.	.	.
!LO:LB:g=original	!	!	!	!	!	!	!	!	!	!	!	!	!
4C#/	5	16e/LL	16g/LL	.	.	.	.	.	.	.	.	2r	2r
.	.	16e/	16g/	.	.	.	.	.	.	.	.	.	.
.	.	16e/	16g/	.	.	.	.	.	.	.	.	.	.
.	.	16e/JJ	16g/JJ	.	.	.	.	.	.	.	.	.	.
8r	.	16e/LL	16g/LL	.	.	.	.	.	.	.	.	.	.
.	.	16e/	16g/	.	.	.	.	.	.	.	.	.	.
8C#/	.	16e/	16g/	.	.	.	.	.	.	.	.	.	.
.	.	16e/JJ	16g/JJ	.	.	.	.	.	.	.	.	.	.
=7	=7	=7	=7	=7	=7	=7	=7	=7	=7	=7	=7	=7	=7
4F#\	.	16ff#\LL	16aa\LL	1r	.	1r	.	1r	.	1r	.	8f#\L	8a\L
.	.	16ff#\	16aa\	.	.	.	.	.	.	.	.	.	.
.	.	16ff#\	16aa\	.	.	.	.	.	.	.	.	8f#\	8a\
.	.	16ff#\JJ	16aa\JJ	.	.	.	.	.	.	.	.	.	.
8r	.	16ff#\LL	16aa\LL	.	.	.	.	.	.	.	.	8f#\	8a\
.	.	16ff#\	16aa\	.	.	.	.	.	.	.	.	.	.
8F#\	.	16ff#\	16aa\	.	.	.	.	.	.	.	.	8f#\J	8a\J
.	.	16ff#\JJ	16aa\JJ	.	.	.	.	.	.	.	.	.	.
4D/	.	16d/LL	16f#/LL	.	.	.	.	.	.	.	.	2r	2r
.	.	16d/	16f#/	.	.	.	.	.	.	.	.	.	.
.	.	16d/	16f#/	.	.	.	.	.	.	.	.	.	.
.	.	16d/JJ	16f#/JJ	.	.	.	.	.	.	.	.	.	.
8r	.	16d/LL	16f#/LL	.	.	.	.	.	.	.	.	.	.
.	.	16d/	16f#/	.	.	.	.	.	.	.	.	.	.
8D/	.	16d/	16f#/	.	.	.	.	.	.	.	.	.	.
.	.	16d/JJ	16f#/JJ	.	.	.	.	.	.	.	.	.	.
=8	=8	=8	=8	=8	=8	=8	=8	=8	=8	=8	=8	=8	=8
8D\L	.	8ff#\L	8aa\L	2r	.	2r	.	2r	.	2r	.	8f#\L	8a\L
16F#\L	6	16ee\L	16gg\L	.	.	.	.	.	.	.	.	16e\L	16g\L
*	*	*	*custos:ee	*	*	*	*	*	*	*	*	*	*
16G\JJ	6 5	16dd\JJ	16ff#\JJ	.	.	.	.	.	.	.	.	16d\JJ	16f#\JJ
!LO:TX:t=P:problem=mixed beam	!	!	!	!	!	!	!	!	!	!	!	!	!
!	!	!	!LO:LB:g=original	!	!	!	!	!	!	!	!	!	!
8A\L	.	8cc#\L	8ee\L	.	.	.	.	.	.	.	.	8A/L	8e\L
8AA\J	4:3	8cc#\J	8ee\J	.	.	.	.	.	.	.	.	8A/J	8e\J
!	!	!	!	!	!	!	!	!	!	!	!	!LO:LB:g=original	!LO:LB:g=original
8D/	.	8dd\	8dd\	8r	.	8r	.	8r	.	8r	.	8F#/	8d\
8r	.	8r	8r	8d\	me-	8d\	me-	8a\	me-	8ff#\	me-	8r	8r
4r	.	4r	4r	8D/	-men-	8d\	-men-	8a\	-men-	8ff#\	-men-	4r	4r
.	.	.	.	8D/	-to	8d\	-to	8a\	-to	8ff#\	-to	.	.
=9	=9	=9	=9	=9	=9	=9	=9	=9	=9	=9	=9	=9	=9
!LO:TX:b:t=tutti	!	!	!	!	!	!	!	!	!	!	!	!	!
8AA/L	.	16cc#\LL	16ee\LL	4r	.	4r	.	4r	.	4r	.	8A/L	8e\L
.	.	16cc#\	16ee\	.	.	.	.	.	.	.	.	.	.
8BB/	.	16cc#\	16ee\	.	.	.	.	.	.	.	.	8A/	8e\
.	.	16cc#\JJ	16ee\JJ	.	.	.	.	.	.	.	.	.	.
8C#/	6	16cc#\LL	16ee\LL	8r	.	8r	.	8r	.	8r	.	8A/	8e\
.	.	16cc#\	16ee\	.	.	.	.	.	.	.	.	.	.
8AA/J	.	16cc#\	16ee\	8A\	me-	8c#\	me-	8a\	me-	8ff#\	me-	8A/J	8e\J
.	.	16cc#\JJ	16ee\JJ	.	.	.	.	.	.	.	.	.	.
8D/L	.	16dd\LL	16ff#\LL	8d\	-men-	8d\	-men-	8a\	-men-	8ff#\	-men-	8d\L	8f#\L
.	.	16dd\	16aa\	.	.	.	.	.	.	.	.	.	.
8AA/	.	16cc#\	16ee\	8A\	-to	8c#\	-to	8a\	-to	8ee\	-to	8A\	8e\
.	.	16cc#\JJ	16aa\JJ	.	.	.	.	.	.	.	.	.	.
8D/	.	16dd\LL	16ff#\LL	8d\	re-	8d\	re-	8a\	re-	8ff#\	re-	8d\	8f#\
.	.	16dd\	16ff#\	.	.	.	.	.	.	.	.	.	.
8AA/J	.	16cc#\	16ee\	8A\	-rum	8e\	-rum	8a\	-rum	8cc#\	-rum	8A\J	8e\J
.	.	16cc#\JJ	16ee\JJ	.	.	.	.	.	.	.	.	.	.
=10	=10	=10	=10	=10	=10	=10	=10	=10	=10	=10	=10	=10	=10
8D/L	.	8dd\L	8ff#\L	8D/	con-	8f#\	Con-	8a\	con-	8dd\	con-	8d\L	8f#\L
8D/J	.	8dd\J	8ff#\J	16D/	-di-	16f#\	-di-	16a\	-di-	16dd\	-di-	8d\J	8f#\J
.	.	.	.	16D/	-tor	16f#\	-tor	16a\	-tor	16dd\	-tor	.	.
16d\LL	.	8r	8r	8r	.	8r	.	8r	.	8r	.	8r	8r
16c#\	.	.	.	.	.	.	.	.	.	.	.	.	.
*	*	*custos:dd	*	*	*	*	*	*	*	*	*	*	*
16d\	.	8cc#\	8ee\	8A\	me-	8c#\	me-	8a\	me-	8ee\	nas-	8A/	8e\
16A\JJ	.	.	.	.	.	.	.	.	.	.	.	.	.
!	!	!LO:LB:g=original	!	!	!	!	!	!	!	!	!	!	!
8d\L	.	16dd\LL	16ff#\LL	8D/	-men-	8d\	-men-	8a\	-men-	8ff#\	-cen-	8d\L	8f#\L
.	.	16dd\	16aa\	.	.	.	.	.	.	.	.	.	.
8A\	.	16cc#\	16ee\	8AA/	-to	8c#\	-to	8a\	-to	8ee\	-do	8A\	8e\
.	.	16cc#\JJ	16aa\JJ	.	.	.	.	.	.	.	.	.	.
!	!	!	!	!	!	!	!	!	!	!LO:LB:g=original	!	!	!
8d\	.	16dd\LL	16ff#\LL	8D/	re-	8d\	re-	8a\	re-	8ff#\	for-	8d\	8f#\
.	.	16dd\	16ff#\	.	.	.	.	.	.	.	.	.	.
8A\J	.	16cc#\	16ee\	8AA/	-rum	8e\	-rum	8a\	-rum	8ee\	-mam	8A\J	8e\J
.	.	16cc#\JJ	16ee\JJ	.	.	.	.	.	.	.	.	.	.
!	!	!	!	!LO:LB:g=original	!	!LO:LB:g=original	!	!LO:LB:g=original	!	!	!	!	!
=11	=11	=11	=11	=11	=11	=11	=11	=11	=11	=11	=11	=11	=11
8d\L	.	8dd\L	8ff#\L	8D/	con-	8f#\	Con-	8a\	con-	8ff#\	Sump-	8d\L	8f#\L
16D\L	.	8dd\J	8ff#\J	16D/	-di-	16f#\	-di-	16a\	-di-	16ff#\	-se-	8d\	8f#\
16E\JJ	.	.	.	16D/	-tor	16f#\	-tor	16a\	-tor	16ff#\	-ris	.	.
8F#\L	6	4r	4r	4r	.	4r	.	4r	.	4r	.	8d\	8f#\
8D\J	.	.	.	.	.	.	.	.	.	.	.	8f#\J	8a\J
4G\	.	2r	2r	2r	.	2r	.	2r	.	2r	.	8g\L	8b\L
.	.	.	.	.	.	.	.	.	.	.	.	8f#\	8a\
4r	.	.	.	.	.	.	.	.	.	.	.	8e\	8g\
.	.	.	.	.	.	.	.	.	.	.	.	8d\J	8f#\J
=12	=12	=12	=12	=12	=12	=12	=12	=12	=12	=12	=12	=12	=12
8AA/L	.	1r	1r	1r	.	1r	.	1r	.	1r	.	4A/	4e\
8BB/	.	.	.	.	.	.	.	.	.	.	.	.	.
8C#/	6	.	.	.	.	.	.	.	.	.	.	8r	8r
8AA/J	.	.	.	.	.	.	.	.	.	.	.	8f#\	8a\
8G\L	.	.	.	.	.	.	.	.	.	.	.	8g\L	8b\L
8G\	.	.	.	.	.	.	.	.	.	.	.	8g\	8b\
8G\	.	.	.	.	.	.	.	.	.	.	.	8g\	8b\
8G\J	.	.	.	.	.	.	.	.	.	.	.	8g\J	8b\J
!LO:LB:g=original	!	!	!	!	!	!	!	!	!	!	!	!	!
=13	=13	=13	=13	=13	=13	=13	=13	=13	=13	=13	=13	=13	=13
4C#/	5	16e/LL	16g/LL	1r	.	1r	.	1r	.	1r	.	2r	2r
.	.	16e/	16g/	.	.	.	.	.	.	.	.	.	.
.	.	16e/	16g/	.	.	.	.	.	.	.	.	.	.
.	.	16e/JJ	16g/JJ	.	.	.	.	.	.	.	.	.	.
4r	.	16e/LL	16g/LL	.	.	.	.	.	.	.	.	.	.
.	.	16e/	16g/	.	.	.	.	.	.	.	.	.	.
.	.	16e/	16g/	.	.	.	.	.	.	.	.	.	.
.	.	16e/JJ	16g/JJ	.	.	.	.	.	.	.	.	.	.
*	*	*	*custos:f#	*	*	*	*	*	*	*	*	*	*
8F#\L	.	2r	2r	.	.	.	.	.	.	.	.	8f#\L	8a\L
8F#\	.	.	.	.	.	.	.	.	.	.	.	8f#\	8a\
8F#\	.	.	.	.	.	.	.	.	.	.	.	8f#\	8a\
8F#\J	.	.	.	.	.	.	.	.	.	.	.	8f#\J	8a\J
!	!	!	!LO:LB:g=original	!	!	!	!	!	!	!	!	!	!
=14	=14	=14	=14	=14	=14	=14	=14	=14	=14	=14	=14	=14	=14
4D/	.	16d/LL	16f#/LL	1r	.	1r	.	1r	.	1r	.	2r	2r
.	.	16d/	16f#/	.	.	.	.	.	.	.	.	.	.
.	.	16d/	16f#/	.	.	.	.	.	.	.	.	.	.
.	.	16d/JJ	16f#/JJ	.	.	.	.	.	.	.	.	.	.
4r	.	16d/LL	16f#/LL	.	.	.	.	.	.	.	.	.	.
.	.	16d/	16f#/	.	.	.	.	.	.	.	.	.	.
.	.	16d/	16f#/	.	.	.	.	.	.	.	.	.	.
.	.	16d/JJ	16f#/JJ	.	.	.	.	.	.	.	.	.	.
8D\L	.	8ff#\L	8aa\L	.	.	.	.	.	.	.	.	8f#\L	8a\L
16F#\L	6	16ee\L	16gg\L	.	.	.	.	.	.	.	.	16e\L	16g\L
16G\JJ	6 5	16dd\JJ	16ff#\JJ	.	.	.	.	.	.	.	.	16d\JJ	16f#\JJ
!LO:TX:t=P:problem=mixed beam	!	!	!	!	!	!	!	!	!	!	!	!	!
8A\L	.	8cc#\L	8ee\L	.	.	.	.	.	.	.	.	8A/L	8e\L
8AA\J	.	8cc#\J	8ee\J	.	.	.	.	.	.	.	.	8A/J	8e\J
=15	=15	=15	=15	=15	=15	=15	=15	=15	=15	=15	=15	=15	=15
4D/	.	4dd\	4dd\	1r	.	1r	.	4f#\	nos-	1r	.	4F#/	4d\
4r	.	4r	4r	.	.	.	.	4f#\	-tri	.	.	4r	4r
!LO:TX:t=P:problem=mixed beam	!	!	!	!	!	!	!	!	!	!	!	!	!
16d\LL	.	2r	2r	.	.	.	.	2r	.	.	.	8d\L	8f#\L
16D\	.	.	.	.	.	.	.	.	.	.	.	.	.
16F#\	6	.	.	.	.	.	.	.	.	.	.	8d\	8f#\
16D\JJ	.	.	.	.	.	.	.	.	.	.	.	.	.
!LO:TX:t=P:problem=mixed beam	!	!	!	!	!	!	!	!	!	!	!	!	!
16d\LL	.	.	.	.	.	.	.	.	.	.	.	8d\	8f#\
16D\	.	.	.	.	.	.	.	.	.	.	.	.	.
16F#\	6	.	.	.	.	.	.	.	.	.	.	8d\J	8f#\J
16D\JJ	.	.	.	.	.	.	.	.	.	.	.	.	.
!	!	!	!	!	!	!	!	!	!	!	!	!	!LO:LB:g=original
=16	=16	=16	=16	=16	=16	=16	=16	=16	=16	=16	=16	=16	=16
4E/	.	1r	1r	1r	.	1r	.	4g\	nos-	1r	.	2r	2r
4r	.	.	.	.	.	.	.	4g\	-tri	.	.	.	.
8E/L	.	.	.	.	.	.	.	2r	.	.	.	8e\L	8g\L
8D/	.	.	.	.	.	.	.	.	.	.	.	8e\	8g\
8C#/	.	.	.	.	.	.	.	.	.	.	.	8e\	8g\
8AA/J	.	.	.	.	.	.	.	.	.	.	.	8e\J	8g\J
!	!	!	!	!	!	!	!	!	!	!	!	!LO:LB:g=original	!
=17	=17	=17	=17	=17	=17	=17	=17	=17	=17	=17	=17	=17	=17
8D\L	.	1r	1r	1r	.	1r	.	4a\	nos-	1r	.	1r	1r
8E\	.	.	.	.	.	.	.	.	.	.	.	.	.
8F#\	.	.	.	.	.	.	.	8a\	-tri	.	.	.	.
8G\J	.	.	.	.	.	.	.	8b\	quod	.	.	.	.
4D\	.	.	.	.	.	.	.	8a\	o-	.	.	.	.
.	.	.	.	.	.	.	.	8g\	-lim	.	.	.	.
!LO:TX:t=P:problem=mixed beam	!	!	!	!	!	!	!	!	!	!	!	!	!
8A\L	.	.	.	.	.	.	.	8f#\	cor-	.	.	.	.
8AA\J	.	.	.	.	.	.	.	16d\	-po-	.	.	.	.
.	.	.	.	.	.	.	.	16d\	-ris	.	.	.	.
=18	=18	=18	=18	=18	=18	=18	=18	=18	=18	=18	=18	=18	=18
8D\L	.	1r	1r	1r	.	1r	.	1r	.	1r	.	8f#\L	8a\L
8E\	.	.	.	.	.	.	.	.	.	.	.	8f#\	8a\
8F#\	.	.	.	.	.	.	.	.	.	.	.	8f#\	8a\
8G\J	.	.	.	.	.	.	.	.	.	.	.	8g\J	8b\J
!	!	!	!	!	!	!	!	!	!	!	!	!LO:TX:t=P:problem=mixed beam	!
4D\	.	.	.	.	.	.	.	.	.	.	.	8f#\L	8a\L
.	.	.	.	.	.	.	.	.	.	.	.	8e\	8g\
!LO:TX:t=P:problem=mixed beam	!	!	!	!	!	!	!	!	!	!	!	!	!
8A\L	.	.	.	.	.	.	.	.	.	.	.	8d\	8f#\
8AA\J	.	.	.	.	.	.	.	.	.	.	.	8F#\J	8d\J
=19	=19	=19	=19	=19	=19	=19	=19	=19	=19	=19	=19	=19	=19
!LO:TX:t=P:problem=mixed beam	!	!	!	!	!	!	!	!	!	!	!	!LO:TX:a:t=2	!
8E\L	.	1r	1r	1r	.	1r	.	8g\L	Sa-	1r	.	1r	1r
8D\	.	.	.	.	.	.	.	8f#\J	.	.	.	.	.
8E\	.	.	.	.	.	.	.	8g\	-cra-	.	.	.	.
8AA\J	.	.	.	.	.	.	.	8a\	-ta	.	.	.	.
!LO:LB:g=original	!	!	!	!	!	!	!	!	!	!	!	!	!
8D\L	.	.	.	.	.	.	.	8f#\L	ab	.	.	.	.
8E\	.	.	.	.	.	.	.	8e\J	.	.	.	.	.
8F#\	.	.	.	.	.	.	.	8f#\	al-	.	.	.	.
8G\J	.	.	.	.	.	.	.	8g\	-vo	.	.	.	.
!	!	!	!	!	!	!	!	!LO:LB:g=original	!	!	!	!	!
=20	=20	=20	=20	=20	=20	=20	=20	=20	=20	=20	=20	=20	=20
!LO:TX:t=P:problem=mixed beam	!	!	!	!	!	!	!	!	!	!	!	!	!
8A\L	.	1r	1r	1r	.	1r	.	8.e\	Vir-	1r	.	1r	1r
16AA\L	.	.	.	.	.	.	.	.	.	.	.	.	.
16BB\JJ	.	.	.	.	.	.	.	16e\	-gi-	.	.	.	.
8C#/L	.	.	.	.	.	.	.	4e\	-nis	.	.	.	.
8AA/J	.	.	.	.	.	.	.	.	.	.	.	.	.
4D/	.	.	.	.	.	.	.	8.a\	Vir-	.	.	.	.
.	.	.	.	.	.	.	.	16g\	-gi-	.	.	.	.
4r	.	.	.	.	.	.	.	4f#\	-nis	.	.	.	.
=21	=21	=21	=21	=21	=21	=21	=21	=21	=21	=21	=21	=21	=21
2r	.	1r	1r	1r	.	1r	.	2r	.	1r	.	8.f#\L	8.a\L
.	.	.	.	.	.	.	.	.	.	.	.	16e\Jk	16g\Jk
.	.	.	.	.	.	.	.	.	.	.	.	4d\	4f#\
4E\	.	.	.	.	.	.	.	8.g\	Vir-	.	.	2r	2r
.	.	.	.	.	.	.	.	16f#\	-gi-	.	.	.	.
4AA/	.	.	.	.	.	.	.	4e\	-nis	.	.	.	.
=22	=22	=22	=22	=22	=22	=22	=22	=22	=22	=22	=22	=22	=22
8AA/L	.	1r	1r	1r	.	1r	.	4r	.	1r	.	1r	1r
8BB/	.	.	.	.	.	.	.	.	.	.	.	.	.
8C#/	6	.	.	.	.	.	.	8r	.	.	.	.	.
8AA/J	.	.	.	.	.	.	.	8e\	Sa-	.	.	.	.
8D\L	.	.	.	.	.	.	.	8f#\	-cra-	.	.	.	.
8E\	.	.	.	.	.	.	.	8e\	-ta	.	.	.	.
8F#\	6	.	.	.	.	.	.	8f#\	ab	.	.	.	.
8D\J	.	.	.	.	.	.	.	16g\	al-	.	.	.	.
.	.	.	.	.	.	.	.	16f#\	-vo	.	.	.	.
=23	=23	=23	=23	=23	=23	=23	=23	=23	=23	=23	=23	=23	=23
!LO:TX:t=P:problem=mixed beam	!	!	!	!	!	!	!	!	!	!	!	!	!
8A\L	.	2r	2r	4r	.	4r	.	8.e\	vir-	4r	.	2r	2r
8AA\J	.	.	.	.	.	.	.	.	.	.	.	.	.
.	.	.	.	.	.	.	.	16e\	-gi-	.	.	.	.
8D/L	.	.	.	8r	.	8r	.	8d\	-nis	8r	.	.	.
!LO:TX:b:t=tutti	!	!	!	!	!	!	!	!	!	!	!	!	!
8AA/	.	.	.	8A\	na-	8c#\	na-	8e\	nas-	8ee\	na-	.	.
8D/	.	4r	4r	8d\	-scen-	8d\	-scen-	8f#\	-cen-	8ff#\	-scen-	4r	4r
8AA/J	.	.	.	8A\	-do	8c#\	-do	8e\	-do	8ee\	-do	.	.
8D/L	.	8r	8r	4r	.	4r	.	4r	.	4r	.	8r	8r
8AA/J	.	8cc#\	8ee\	.	.	.	.	.	.	.	.	8A/	8e\
=24	=24	=24	=24	=24	=24	=24	=24	=24	=24	=24	=24	=24	=24
8D/L	.	8dd\L	8ff#\L	8r	.	8r	.	8r	.	8r	.	8d\L	8f#\L
*	*	*custos:dd	*	*	*	*	*	*	*	*	*	*	*
8AA/J	.	8cc#\J	8ee\	8A\	na-	8c#\	na-	8e\	na-	8ee\	na-	8A\	8e\
!	!	!LO:LB:g=original	!	!	!	!	!	!	!	!	!	!	!
8D/L	.	8dd\L	8ff#\	8d\	-scen-	8d\	-scen-	8f#\	-scen-	8ff#\	-scen-	8d\	8f#\
8AA/J	.	8cc#\J	8ee\J	8A\	-do	8c#\	-do	8e\	-do	8ee\	-do	8A\J	8e\J
!	!	!	!	!	!	!	!	!LO:LB:g=original	!	!	!	!	!
4E\	.	8ee\L	8gg\L	4E\	for-	4e\	for-	4g\	for-	4gg\	for-	4e\	8g\L
.	.	8ff#\J	8aa\	.	.	.	.	.	.	.	.	.	8a\
4D\	.	8dd\L	8ff#\	8F#\L	-mam	4d\	-mam	4f#\	-mam	4ff#\	-mam	4d\	8f#\
.	.	8ee\J	8gg\J	8G\J	.	.	.	.	.	.	.	.	8g\J
=25	=25	=25	=25	=25	=25	=25	=25	=25	=25	=25	=25	=25	=25
4.A\	.	4.cc#\	4.ee\	4.A\	Sump-	4.c#\	Sump-	4.e\	Sump-	4.ee\	Sump-	4.A/	4.e\
8AA/	.	8cc#\	8ee\	8AA/	-se-	8c#\	-se-	8e\	-se-	8ee\	-se-	8A/	8e\
4D/	.	4dd\	4dd\	4D/	-ris	4c#\	-ris	4d\	-ris	4dd\	-ris	4F#/	4d\
4r	.	4r	4r	4r	.	4r	.	4a\	.	4r	.	4r	4r
=26	=26	=26	=26	=26	=26	=26	=26	=26	=26	=26	=26	=26	=26
8r	.	8r	8r	8r	.	8r	.	2a\	na-	8r	.	8r	8r
8A\L	.	8cc#\L	8ee\L	8AA/	na-	8c#\	na-	.	.	8ee\	na-	8A/L	8e\L
8d\	.	8dd\	8ff#\	8D/	-scen-	8d\	-scen-	.	.	8ff#\	-scen-	8d/	8f#\
8A\J	.	8cc#\J	8ee\J	8AA/	-do	8c#\	-do	.	.	8ee\	-do	8A/J	8e\J
!LO:LB:g=original	!	!	!	!	!	!	!	!	!	!	!	!	!
8r	.	8r	8r	8r	.	8r	.	2a\	-scen-	8r	.	8r	8r
*	*	*	*	*	*ij	*	*ij	*	*	*	*	*	*
8A\L	.	8cc#\L	8ee\L	8AA/	na-	8c#\	na-	.	.	8ee\	na-	8A/L	8e\L
!	!	!	!	!	!	!	!	!	!	!LO:LB:g=original	!	!	!
8d\	.	8dd\	8ff#\	8D/	-scen-	8d\	-scen-	.	.	8ff#\	-scen-	8d/	8f#\
8A\J	.	8cc#\J	8ee\J	8AA/	-do	8c#\	-do	.	.	8ee\	-do	8A/J	8e\J
*	*	*	*	*	*Xij	*	*Xij	*	*	*	*	*	*
!	!	!	!	!LO:LB:g=original	!	!LO:LB:g=original	!	!	!	!	!	!	!
=27	=27	=27	=27	=27	=27	=27	=27	=27	=27	=27	=27	=27	=27
4d\	.	4dd\	4ff#\	4D/	-na	4d\	-na	4a\	-do	4ff#\	-na	4d\	4f#\
8r	.	8r	8r	8r	.	8r	.	8r	.	8r	.	8r	8r
*	*	*	*custos:gg	*	*	*	*	*	*	*	*	*	*
8D/	.	8ff#\	8aa\	8D/	na-	8d\	na-	8a\	na-	8ff#\	na-	8f#\	8a\
!LO:TX:t=P:problem=mixed beam	!	!	!	!	!	!	!	!	!	!	!	!	!
!	!	!	!LO:LB:g=original	!	!	!	!	!	!	!	!	!	!LO:LB:g=original
8E\L	6	8ee\L	8gg\L	8E\	-scen-	8e\	-scen-	8g\	-scen-	8gg\	-scen-	8e\L	8g\L
8D\	6	8dd\	8ff#\	8D/	-do	8d\	-do	8f#\	-do	8dd\	-do	8d\	8f#\
8E\	6	8ee\	8gg\	8E\	for-	8e\	for-	8g\	for-	8ff#\	for-	8e\	8g\
8AA\J	.	8ff#\J	8aa\J	8AA/	-mam	8f#\	-mam	8a\	-mam	8gg\	-mam	8f#\J	8a\J
=28	=28	=28	=28	=28	=28	=28	=28	=28	=28	=28	=28	=28	=28
!LO:TX:t=P:problem=mixed beam	!	!	!	!	!	!	!	!	!	!	!	!	!
8A\L	.	8cc#\L	8ee\L	8A\	Sump-	8.c#\	Sump-	8.e\	Sump-	8.ee\	Sump-	8A/L	8e\L
8AA\J	4:3	8cc#\J	8ee\J	8AA/	-se-	.	.	.	.	.	.	8A/J	8e\J
.	.	.	.	.	.	16c#\	-se-	8e\	-se-	8ee\	-se-	.	.
4D/	.	4dd\	4dd\	4D/	-ris	4d\	-ris	.	.	.	.	4F#/	4d\
.	.	.	.	.	.	.	.	4d\	-ris	4dd\	-ris	.	.
!LO:TX:t=P:problem=mixed beam	!	!	!	!	!	!	!	!	!	!	!	!	!
8A\L	.	16dd\LL	16dd\LL	8A\	Sump-	8.c#\	Sump-	.	.	.	.	8D/L	8D/L
.	.	16a\	16a\	.	.	.	.	8.e\	Sump-	8.ee\	Sump-	.	.
8AA\J	4:3	16f#\	16f#\	8AA/	-se-	.	.	.	.	.	.	16D/L	16D/L
.	.	16a\JJ	16a\JJ	.	.	16c#\	-se-	.	.	.	.	16D/JJ	16D/JJ
!	!	!LO:TX:t=P:problem=mixed beam	!LO:TX:t=P:problem=mixed beam	!	!	!	!	!	!	!	!	!	!
4D/	.	8dd\L	8d\L	4D/	-ris	4d\	-ris	8e\	-se-	8ee\	-se-	4D/	4D/
.	.	8d\J	8dd\J	.	.	.	.	8d\	-ris	8ff#\	-ris	.	.
!	!	!LO:LB:g=original	!	!LO:LB:g=original	!	!	!	!	!	!LO:LB:g=original	!	!	!
!	!	!	!	!	!	!	!	!	!	!	!	!LO:LB:g=original	!
=29||	=29||	=29||	=29||	=29||	=29||	=29||	=29||	=29||	=29||	=29||	=29||	=29||	=29||
*M3/4	*	*M3/4	*M3/4	*M3/4	*	*M3/4	*	*M3/4	*	*M3/4	*	*M3/4	*M3/4
!LO:TX:a:i:t=Solo	!	!	!	!	!	!	!	!	!	!	!	!	!LO:TX:a:t=Solo
!LO:TX:b:t=Maria Mater.	!	!LO:TX:a:t=Maria Mater gratiae\nTacet	!LO:TX:a:t=Maria Mater gratiae\nTacet	!	!	!LO:TX:a:t=Maria Mater gratiae\nTacet	!	!LO:TX:a:i:t=Solo	!	!LO:TX:a:t=Maria Mater gratiae\nTacet.	!	!	!LO:TX:b:t=Maria Mater gratiae
4D\	.	2.ryy	2.ryy	2.r	.	2.ryy	.	2.r	.	2.ryy	.	8d\L	8f#\L
.	.	.	.	.	.	.	.	.	.	.	.	8e\J	8g\J
4F#\	.	.	.	.	.	.	.	.	.	.	.	4f#\	4a\
4D\	.	.	.	.	.	.	.	.	.	.	.	4d\	4f#\
=30	=30	=30	=30	=30	=30	=30	=30	=30	=30	=30	=30	=30	=30
!	!	!	!	!	!	!	!	!	!	!	!	!	!
4E\	.	2.ryy	2.ryy	2.r	.	2.ryy	.	2.r	.	2.ryy	.	2e\	2g\
4C#/	6	.	.	.	.	.	.	.	.	.	.	.	.
4AA/	.	.	.	.	.	.	.	.	.	.	.	4f#\	4a\
=31	=31	=31	=31	=31	=31	=31	=31	=31	=31	=31	=31	=31	=31
2D/	.	2.ryy	2.ryy	2.r	.	2.ryy	.	2.r	.	2.ryy	.	4.d\	4.f#\
.	.	.	.	.	.	.	.	.	.	.	.	8A/	8e\
4D/	.	.	.	.	.	.	.	.	.	.	.	4A/	4d\
=32	=32	=32	=32	=32	=32	=32	=32	=32	=32	=32	=32	=32	=32
4r	.	2.ryy	2.ryy	2.r	.	2.ryy	.	2.r	.	2.ryy	.	4f#\	4a\
4r	.	.	.	.	.	.	.	.	.	.	.	4d\	4f#\
16D/LL	3	.	.	.	.	.	.	.	.	.	.	4r	4r
16C#/	3	.	.	.	.	.	.	.	.	.	.	.	.
16D/	3	.	.	.	.	.	.	.	.	.	.	.	.
16AA/JJ	3	.	.	.	.	.	.	.	.	.	.	.	.
=33	=33	=33	=33	=33	=33	=33	=33	=33	=33	=33	=33	=33	=33
4r	.	2.ryy	2.ryy	2.r	.	2.ryy	.	2.r	.	2.ryy	.	4e\	4g\
4r	.	.	.	.	.	.	.	.	.	.	.	4A/	4e\
16E/LL	3	.	.	.	.	.	.	.	.	.	.	4r	4r
16D/	3	.	.	.	.	.	.	.	.	.	.	.	.
16C#/	3	.	.	.	.	.	.	.	.	.	.	.	.
16AA/JJ	3	.	.	.	.	.	.	.	.	.	.	.	.
=34	=34	=34	=34	=34	=34	=34	=34	=34	=34	=34	=34	=34	=34
8D\L	.	2.ryy	2.ryy	2.r	.	2.ryy	.	2.r	.	2.ryy	.	8d\L	8f#\L
8G\J	6 5	.	.	.	.	.	.	.	.	.	.	8e\J	8g\J
4A\	.	.	.	.	.	.	.	.	.	.	.	4d\	4f#\
4AA/	4:3	.	.	.	.	.	.	.	.	.	.	4A/	4e\
=35	=35	=35	=35	=35	=35	=35	=35	=35	=35	=35	=35	=35	=35
4D\	.	2.ryy	2.ryy	8D\L	ma-	2.ryy	.	8f#\L	ma-	2.ryy	.	4F#/	4d\
.	.	.	.	8E\J	.	.	.	8g\J	.	.	.	.	.
!LO:LB:g=original	!	!	!	!	!	!	!	!	!	!	!	!	!
4F#\	6	.	.	4F#\	-ri-	.	.	4a\	-ri-	.	.	4r	4r
4D\	.	.	.	4D\	-a	.	.	4f#\	-a	.	.	4r	4r
!	!	!	!	!	!	!	!	!LO:LB:g=original	!	!	!	!	!
=36	=36	=36	=36	=36	=36	=36	=36	=36	=36	=36	=36	=36	=36
4E\	.	2.ryy	2.ryy	2E\	ma-	2.ryy	.	2g\	ma-	2.ryy	.	2.r	2.r
4C#/	6	.	.	.	.	.	.	.	.	.	.	.	.
4AA/	.	.	.	4F#\	-ter	.	.	4a\	-ter	.	.	.	.
=37	=37	=37	=37	=37	=37	=37	=37	=37	=37	=37	=37	=37	=37
2D/	.	2.ryy	2.ryy	4.D/	gra-	2.ryy	.	4.f#\	gra-	2.ryy	.	2.r	2.r
.	.	.	.	8C#/	-ti-	.	.	8e\	-ti-	.	.	.	.
4D/	.	.	.	4D/	-ae	.	.	4d\	-ae	.	.	.	.
=38	=38	=38	=38	=38	=38	=38	=38	=38	=38	=38	=38	=38	=38
4r	.	2.ryy	2.ryy	2.r	.	2.ryy	.	2.r	.	2.ryy	.	4f#\	4a\
4r	.	.	.	.	.	.	.	.	.	.	.	4d\	4f#\
16d\LL	3	.	.	.	.	.	.	.	.	.	.	4r	4r
16c#\	3	.	.	.	.	.	.	.	.	.	.	.	.
16d\	3	.	.	.	.	.	.	.	.	.	.	.	.
16A\JJ	3	.	.	.	.	.	.	.	.	.	.	.	.
=39	=39	=39	=39	=39	=39	=39	=39	=39	=39	=39	=39	=39	=39
4r	.	2.ryy	2.ryy	2.r	.	2.ryy	.	2.r	.	2.ryy	.	4e\	4g\
4r	.	.	.	.	.	.	.	.	.	.	.	4A/	4e\
16E/LL	.	.	.	.	.	.	.	.	.	.	.	4r	4r
16D/	.	.	.	.	.	.	.	.	.	.	.	.	.
16C#/	.	.	.	.	.	.	.	.	.	.	.	.	.
16AA/JJ	.	.	.	.	.	.	.	.	.	.	.	.	.
!	!	!	!	!	!	!	!	!	!	!	!	!	!LO:LB:g=original
=40	=40	=40	=40	=40	=40	=40	=40	=40	=40	=40	=40	=40	=40
8D\L	.	2.ryy	2.ryy	2.r	.	2.ryy	.	2.r	.	2.ryy	.	8d\L	8f#\L
16F#\L	6	.	.	.	.	.	.	.	.	.	.	8e\J	8g\J
16G\JJ	6 5	.	.	.	.	.	.	.	.	.	.	.	.
4A\	.	.	.	.	.	.	.	.	.	.	.	4d\	4f#\
4AA/	# 4:3	.	.	.	.	.	.	.	.	.	.	4A/	4e\
=41	=41	=41	=41	=41	=41	=41	=41	=41	=41	=41	=41	=41	=41
4D\	.	2.ryy	2.ryy	8D\L	ma-	2.ryy	.	8f#\L	ma-	2.ryy	.	4F#/	4d\
.	.	.	.	8E\J	.	.	.	8g\J	.	.	.	.	.
4F#\	6	.	.	4F#\	-ri-	.	.	4a\	-ri-	.	.	4r	4r
4D\	.	.	.	4D\	-a	.	.	4f#\	-a	.	.	4r	4r
!	!	!	!	!LO:LB:g=original	!	!	!	!	!	!	!	!	!
=42	=42	=42	=42	=42	=42	=42	=42	=42	=42	=42	=42	=42	=42
4E\	.	2.ryy	2.ryy	2E\	ma-	2.ryy	.	2g\	ma-	2.ryy	.	2.r	2.r
4C#/	6	.	.	.	.	.	.	.	.	.	.	.	.
4AA/	.	.	.	4F#\	-ter	.	.	4a\	-ter	.	.	.	.
=43	=43	=43	=43	=43	=43	=43	=43	=43	=43	=43	=43	=43	=43
2D/	.	2.ryy	2.ryy	4.D/	gra-	2.ryy	.	4.f#\	gra-	2.ryy	.	2.r	2.r
.	.	.	.	8C#/	-ti-	.	.	8e\	-ti-	.	.	.	.
4D/	.	.	.	4D/	-ae	.	.	4d\	-ae	.	.	.	.
=44	=44	=44	=44	=44	=44	=44	=44	=44	=44	=44	=44	=44	=44
4r	.	2.ryy	2.ryy	4F#\	dul-	2.ryy	.	4a\	dul-	2.ryy	.	2.r	2.r
4r	.	.	.	4D\	-cis	.	.	4f#\	-cis	.	.	.	.
16D/LL	.	.	.	4r	.	.	.	4r	.	.	.	.	.
16C#/	.	.	.	.	.	.	.	.	.	.	.	.	.
16D/	.	.	.	.	.	.	.	.	.	.	.	.	.
16AA/JJ	.	.	.	.	.	.	.	.	.	.	.	.	.
=45	=45	=45	=45	=45	=45	=45	=45	=45	=45	=45	=45	=45	=45
*	*	*	*	*	*ij	*	*	*	*	*	*	*	*
4r	.	2.ryy	2.ryy	4E\	dul-	2.ryy	.	4g\	dul-	2.ryy	.	2.r	2.r
4r	.	.	.	4C#/	-cis	.	.	4e\	-cis	.	.	.	.
*	*	*	*	*	*Xij	*	*	*	*	*	*	*	*
16E/LL	.	.	.	4r	.	.	.	4r	.	.	.	.	.
16D/	.	.	.	.	.	.	.	.	.	.	.	.	.
16C#/	.	.	.	.	.	.	.	.	.	.	.	.	.
16AA/JJ	.	.	.	.	.	.	.	.	.	.	.	.	.
!LO:LB:g=original	!	!	!	!	!	!	!	!	!	!	!	!	!
=46	=46	=46	=46	=46	=46	=46	=46	=46	=46	=46	=46	=46	=46
4D\	.	2.ryy	2.ryy	8D\L	Pa-	2.ryy	.	8f#\L	Pa-	2.ryy	.	2.r	2.r
.	.	.	.	8E\	.	.	.	8g\	.	.	.	.	.
4F#\	6	.	.	8D\	.	.	.	8f#\	.	.	.	.	.
.	.	.	.	8E\J	.	.	.	8g\J	.	.	.	.	.
4D\	.	.	.	4F#\	-rens	.	.	4a\	-rens	.	.	.	.
=47	=47	=47	=47	=47	=47	=47	=47	=47	=47	=47	=47	=47	=47
8G\L	.	2.ryy	2.ryy	8G\L	Cle-	2.ryy	.	8g\L	Cle-	2.ryy	.	2.r	2.r
8E\J	.	.	.	8E\J	.	.	.	8f#\J	.	.	.	.	.
4A\	.	.	.	4A\	-men-	.	.	4e\	-men-	.	.	.	.
4AA/	4:3	.	.	4AA/	-ti-	.	.	4e\	-ti-	.	.	.	.
=48	=48	=48	=48	=48	=48	=48	=48	=48	=48	=48	=48	=48	=48
4D/	.	2.ryy	2.ryy	4D/	-ae	2.ryy	.	4d\	-ae	2.ryy	.	2.r	4d\
4r	.	.	.	4r	.	.	.	4r	.	.	.	.	8d\L
.	.	.	.	.	.	.	.	.	.	.	.	.	8d\
4r	.	.	.	4r	.	.	.	4r	.	.	.	.	8d\
.	.	.	.	.	.	.	.	.	.	.	.	.	8d\J
!	!	!	!	!	!	!	!	!LO:LB:g=original	!	!	!	!	!
=49	=49	=49	=49	=49	=49	=49	=49	=49	=49	=49	=49	=49	=49
8E/L	.	2.ryy	2.ryy	2.r	.	2.ryy	.	2.r	.	2.ryy	.	2.r	4e\
8D/	.	.	.	.	.	.	.	.	.	.	.	.	.
8C#/	6	.	.	.	.	.	.	.	.	.	.	.	4r
8AA/	.	.	.	.	.	.	.	.	.	.	.	.	.
8C#/	6	.	.	.	.	.	.	.	.	.	.	.	4r
8AA/J	.	.	.	.	.	.	.	.	.	.	.	.	.
!	!	!	!	!	!	!	!	!	!	!	!	!LO:LB:g=original	!
=50	=50	=50	=50	=50	=50	=50	=50	=50	=50	=50	=50	=50	=50
4D/	.	2.ryy	2.ryy	2.r	.	2.ryy	.	2.r	.	2.ryy	.	4d\	4f#\
4r	.	.	.	.	.	.	.	.	.	.	.	8d\L	8f#\L
.	.	.	.	.	.	.	.	.	.	.	.	8d\	8f#\
4r	.	.	.	.	.	.	.	.	.	.	.	8d\	8f#\
.	.	.	.	.	.	.	.	.	.	.	.	8d\J	8f#\J
=51	=51	=51	=51	=51	=51	=51	=51	=51	=51	=51	=51	=51	=51
8E/L	.	2.ryy	2.ryy	2.r	.	2.ryy	.	2.r	.	2.ryy	.	4e\	4g\
8D/	.	.	.	.	.	.	.	.	.	.	.	.	.
8C#/	.	.	.	.	.	.	.	.	.	.	.	4r	4r
8AA/	.	.	.	.	.	.	.	.	.	.	.	.	.
8C#/	6	.	.	.	.	.	.	.	.	.	.	4r	4r
8AA/J	.	.	.	.	.	.	.	.	.	.	.	.	.
=52	=52	=52	=52	=52	=52	=52	=52	=52	=52	=52	=52	=52	=52
4D/	.	2.ryy	2.ryy	2.r	.	2.ryy	.	2.r	.	2.ryy	.	4f#\	4a\
4F#\	6	.	.	.	.	.	.	.	.	.	.	4f#\	4a\
4D/	.	.	.	.	.	.	.	.	.	.	.	4f#\	4a\
=53	=53	=53	=53	=53	=53	=53	=53	=53	=53	=53	=53	=53	=53
2D/	.	2.ryy	2.ryy	2.r	.	2.ryy	.	2.r	.	2.ryy	.	4.f#\	4.a\
.	.	.	.	.	.	.	.	.	.	.	.	8e\	8g\
4r	.	.	.	.	.	.	.	.	.	.	.	4d\	4f#\
=54	=54	=54	=54	=54	=54	=54	=54	=54	=54	=54	=54	=54	=54
8G\L	.	2.ryy	2.ryy	2.r	.	2.ryy	.	2.r	.	2.ryy	.	8e\L	8g\L
8E\J	.	.	.	.	.	.	.	.	.	.	.	8d\J	8f#\J
4A\	.	.	.	.	.	.	.	.	.	.	.	4A/	4e\
4AA/	4:3	.	.	.	.	.	.	.	.	.	.	4A/	4e\
=55	=55	=55	=55	=55	=55	=55	=55	=55	=55	=55	=55	=55	=55
4D/	.	2.ryy	2.ryy	4F#\	Tu	2.ryy	.	4a\	Tu	2.ryy	.	4F#/	4d\
4D/	.	.	.	4F#\	nos	.	.	4a\	nos	.	.	4r	4r
4D/	6 4	.	.	4G\	ab	.	.	4b\	ab	.	.	4r	4r
=56	=56	=56	=56	=56	=56	=56	=56	=56	=56	=56	=56	=56	=56
2D/	.	2.ryy	2.ryy	4.F#\	ho-	2.ryy	.	(4.a\	ho-	2.ryy	.	2.r	2.r
.	.	.	.	8E\	.	.	.	8g\)	.	.	.	.	.
4D/	.	.	.	4D/	-ste	.	.	4f#\	-ste	.	.	.	.
=57	=57	=57	=57	=57	=57	=57	=57	=57	=57	=57	=57	=57	=57
4D/	.	2.ryy	2.ryy	2.r	.	2.ryy	.	2.r	.	2.ryy	.	4f#\	4a\
4D/	.	.	.	.	.	.	.	.	.	.	.	4f#\	4a\
4D/	6 4	.	.	.	.	.	.	.	.	.	.	4g\	4b\
!LO:LB:g=original	!	!	!	!	!	!	!	!	!	!	!	!	!LO:LB:g=original
=58	=58	=58	=58	=58	=58	=58	=58	=58	=58	=58	=58	=58	=58
2D/	.	2.ryy	2.ryy	2.r	.	2.ryy	.	2.r	.	2.ryy	.	4.f#\	4.a\
.	.	.	.	.	.	.	.	.	.	.	.	8e\	8g\
4D/	.	.	.	.	.	.	.	.	.	.	.	4d\	4f#\
!	!	!	!	!LO:LB:g=original	!	!	!	!	!	!	!	!	!
=59	=59	=59	=59	=59	=59	=59	=59	=59	=59	=59	=59	=59	=59
4D/	.	2.ryy	2.ryy	4F#\	Tu	2.ryy	.	4a\	Tu	2.ryy	.	2.r	2.r
4D/	.	.	.	4F#\	nos	.	.	4a\	nos	.	.	.	.
4D/	6 4	.	.	4G\	ab	.	.	4b\	ab	.	.	.	.
=60	=60	=60	=60	=60	=60	=60	=60	=60	=60	=60	=60	=60	=60
2D/	.	2.ryy	2.ryy	(4.F#\	ho-	2.ryy	.	(4.a\	ho-	2.ryy	.	2.r	2.r
.	.	.	.	8E\)	.	.	.	8g\)	.	.	.	.	.
4D/	.	.	.	4D/	-ste	.	.	4f#\	-ste	.	.	.	.
=61	=61	=61	=61	=61	=61	=61	=61	=61	=61	=61	=61	=61	=61
8AA/L	.	2.ryy	2.ryy	4.AA/	pro-	2.ryy	.	4.e\	pro-	2.ryy	.	2.r	2.r
8BB/	.	.	.	.	.	.	.	.	.	.	.	.	.
8C#/	6	.	.	.	.	.	.	.	.	.	.	.	.
8BB/	.	.	.	8AA/	-te-	.	.	8e\	-te-	.	.	.	.
8C#/	6	.	.	4AA/	-ge	.	.	4e\	-ge	.	.	.	.
8AA/J	.	.	.	.	.	.	.	.	.	.	.	.	.
=62	=62	=62	=62	=62	=62	=62	=62	=62	=62	=62	=62	=62	=62
2D/	.	2.ryy	2.ryy	4F#\	et	2.ryy	.	4a\	et	2.ryy	.	2.r	2.r
.	.	.	.	8D\L	Mor-	.	.	8f#\L	Mor-	.	.	.	.
.	.	.	.	8E\J	.	.	.	8g\J	.	.	.	.	.
4r	.	.	.	4F#\	-tis	.	.	4a\	-tis	.	.	.	.
=63	=63	=63	=63	=63	=63	=63	=63	=63	=63	=63	=63	=63	=63
4E\	.	2.ryy	2.ryy	2E\	ho-	2.ryy	.	2g\	ho-	2.ryy	.	2.r	2.r
4C#/	.	.	.	.	.	.	.	.	.	.	.	.	.
4AA/	.	.	.	4D\	-ra	.	.	4f#\	-ra	.	.	.	.
=64	=64	=64	=64	=64	=64	=64	=64	=64	=64	=64	=64	=64	=64
4.A\	.	2.ryy	2.ryy	4.AA/	Sus-	2.ryy	.	4.e\	sus-	2.ryy	.	2.r	2.r
8AA/	.	.	.	8AA/	-ci-	.	.	8e\	-ci-	.	.	.	.
4AA/	.	.	.	4AA/	-pe	.	.	4e\	-pe	.	.	.	.
=65	=65	=65	=65	=65	=65	=65	=65	=65	=65	=65	=65	=65	=65
2D/	.	2.ryy	2.ryy	8F#\L	et	2.ryy	.	8a\L	et	2.ryy	.	2.r	2.r
.	.	.	.	8E\	.	.	.	8g\	.	.	.	.	.
.	.	.	.	8F#\	.	.	.	8a\	.	.	.	.	.
.	.	.	.	8G\	.	.	.	8b\	.	.	.	.	.
4r	.	.	.	8F#\	.	.	.	8a\	.	.	.	.	.
.	.	.	.	8G\J	.	.	.	8b\J	.	.	.	.	.
!	!	!	!	!	!	!	!	!LO:LB:g=original	!	!	!	!	!
=66	=66	=66	=66	=66	=66	=66	=66	=66	=66	=66	=66	=66	=66
2E\	.	2.ryy	2.ryy	2E\	mor-	2.ryy	.	2g\	mor-	2.ryy	.	2.r	2.r
4r	.	.	.	4E\	-tis	.	.	4g\	-tis	.	.	.	.
=67	=67	=67	=67	=67	=67	=67	=67	=67	=67	=67	=67	=67	=67
4E\	.	2.ryy	2.ryy	8E\L	ho-	2.ryy	.	8g\L	ho-	2.ryy	.	2.r	2.r
.	.	.	.	8D\	.	.	.	8f#\	.	.	.	.	.
4C#/	6	.	.	8E\	.	.	.	8g\	.	.	.	.	.
.	.	.	.	8F#\	.	.	.	8a\	.	.	.	.	.
4AA/	.	.	.	8E\	.	.	.	8g\	.	.	.	.	.
.	.	.	.	8F#\J	.	.	.	8a\J	.	.	.	.	.
!	!	!	!	!LO:LB:g=original	!	!	!	!	!	!	!	!	!
=68	=68	=68	=68	=68	=68	=68	=68	=68	=68	=68	=68	=68	=68
2D/	.	2.ryy	2.ryy	2E\	.	2.ryy	.	2g\	.	2.ryy	.	2.r	2.r
4D/	.	.	.	4E\	-ra	.	.	4g\	-ra	.	.	.	.
=69	=69	=69	=69	=69	=69	=69	=69	=69	=69	=69	=69	=69	=69
2D/	.	2.ryy	2.ryy	4.F#\	Sus-	2.ryy	.	4.a\	Sus-	2.ryy	.	2.r	2.r
.	.	.	.	8E\	-ci-	.	.	8g\	-ci-	.	.	.	.
4r	.	.	.	4D/	-pe	.	.	4f#\	-pe	.	.	.	.
!LO:LB:g=original	!	!	!	!	!	!	!	!	!	!	!	!	!
=70	=70	=70	=70	=70	=70	=70	=70	=70	=70	=70	=70	=70	=70
2E\	.	2.ryy	2.ryy	4.E\	Sus-	2.ryy	.	4.g\	Sus-	2.ryy	.	2.r	2.r
.	.	.	.	8D/	-ci-	.	.	8f#\	-ci-	.	.	.	.
4r	.	.	.	4C#/	-pe	.	.	4e\	-pe	.	.	.	.
=71	=71	=71	=71	=71	=71	=71	=71	=71	=71	=71	=71	=71	=71
2.r	.	2.ryy	2.ryy	2.r	.	2.ryy	.	2.r	.	2.ryy	.	4.f#\	4.a\
.	.	.	.	.	.	.	.	.	.	.	.	8e\	8g\
.	.	.	.	.	.	.	.	.	.	.	.	4d\	4f#\
=72	=72	=72	=72	=72	=72	=72	=72	=72	=72	=72	=72	=72	=72
2.r	.	2.ryy	2.ryy	2.r	.	2.ryy	.	2.r	.	2.ryy	.	4.e\	4.g\
.	.	.	.	.	.	.	.	.	.	.	.	8d\	8f#\
.	.	.	.	.	.	.	.	.	.	.	.	4c#\	4e\
=73	=73	=73	=73	=73	=73	=73	=73	=73	=73	=73	=73	=73	=73
4D\	.	2.ryy	2.ryy	4F#\	et	2.ryy	.	4a\	et	2.ryy	.	2.r	2.r
4F#\	6	.	.	4F#\	mor-	.	.	4a\	mor-	.	.	.	.
4D\	.	.	.	4F#\	-tis	.	.	4a\	-tis	.	.	.	.
=74	=74	=74	=74	=74	=74	=74	=74	=74	=74	=74	=74	=74	=74
4E\	.	2.ryy	2.ryy	2E\	ho-	2.ryy	.	2g\	ho-	2.ryy	.	2.r	2.r
4C#/	.	.	.	.	.	.	.	.	.	.	.	.	.
4E\	.	.	.	4D/	-ra	.	.	4f#\	-ra	.	.	.	.
=75	=75	=75	=75	=75	=75	=75	=75	=75	=75	=75	=75	=75	=75
4A\	.	2.ryy	2.ryy	4.AA/	Sus-	2.ryy	.	4.e\	Sus-	2.ryy	.	2.r	2.r
8AA/L	.	.	.	.	.	.	.	.	.	.	.	.	.
8BB/	.	.	.	8AA/	-ci-	.	.	8e\	-ci-	.	.	.	.
8C#/	6	.	.	4AA/	-pe	.	.	4e\	-pe	.	.	.	.
8AA/J	.	.	.	.	.	.	.	.	.	.	.	.	.
=76	=76	=76	=76	=76	=76	=76	=76	=76	=76	=76	=76	=76	=76
8D\L	.	2.ryy	2.ryy	8D\L	Sus-	2.ryy	.	8f#\L	Sus-	2.ryy	.	2.r	2.r
8G\J	6 5	.	.	8E\J	.	.	.	8g\J	.	.	.	.	.
!LO:TX:t=P:problem=mixed beam	!	!	!	!	!	!	!	!	!	!	!	!	!
8A\L	.	.	.	4A\	.	.	.	4e\	.	.	.	.	.
8AA\J	.	.	.	.	.	.	.	.	.	.	.	.	.
!LO:TX:t=P:problem=mixed beam	!	!	!	!	!	!	!	!	!	!	!	!	!
8A\L	.	.	.	4AA/	-ci-	.	.	4e\	-ci-	.	.	.	.
8AA\J	4:3	.	.	.	.	.	.	.	.	.	.	.	.
!	!	!	!	!	!	!	!	!	!	!	!	!LO:LB:g=original	!
=77	=77	=77	=77	=77	=77	=77	=77	=77	=77	=77	=77	=77	=77
!LO:TX:t=P:problem=mixed beam	!	!	!	!	!	!	!	!	!	!	!	!	!
8D\L	.	2.ryy	2.ryy	4D/	-pe	2.ryy	.	4d\	-pe	2.ryy	.	4d\	4f#\
8d\	.	.	.	.	.	.	.	.	.	.	.	.	.
8d\	.	.	.	4r	.	.	.	4r	.	.	.	4A/	4e\
8d\	.	.	.	.	.	.	.	.	.	.	.	.	.
8d\	.	.	.	4r	.	.	.	4r	.	.	.	4F#/	4d\
8d\J	.	.	.	.	.	.	.	.	.	.	.	.	.
!	!	!	!	!	!	!	!	!LO:LB:g=original	!	!	!	!	!
=78	=78	=78	=78	=78	=78	=78	=78	=78	=78	=78	=78	=78	=78
2D/	.	2.ryy	2.ryy	8D\L	Ma-	2.ryy	.	8f#\L	Ma-	2.ryy	.	2.r	2.r
.	.	.	.	8E\J	.	.	.	8g\J	.	.	.	.	.
.	.	.	.	4F#\	-ri-	.	.	4a\	-ri-	.	.	.	.
4r	.	.	.	4D\	-a	.	.	4f#\	-a	.	.	.	.
=79	=79	=79	=79	=79	=79	=79	=79	=79	=79	=79	=79	=79	=79
4E\	.	2.ryy	2.ryy	2E\	Ma-	2.ryy	.	2g\	Ma-	2.ryy	.	2.r	2.r
4C#/	6	.	.	.	.	.	.	.	.	.	.	.	.
4AA/	.	.	.	4F#\	-ter	.	.	4a\	-ter	.	.	.	.
!	!	!	!	!LO:LB:g=original	!	!	!	!	!	!	!	!	!
=80	=80	=80	=80	=80	=80	=80	=80	=80	=80	=80	=80	=80	=80
2D/	.	2.ryy	2.ryy	4.D/	gra-	2.ryy	.	4.f#\	gra-	2.ryy	.	2.r	2.r
.	.	.	.	8D/	-ti-	.	.	8e\	-ti-	.	.	.	.
4D/	.	.	.	4D/	-ae	.	.	4d\	-ae	.	.	.	.
=81	=81	=81	=81	=81	=81	=81	=81	=81	=81	=81	=81	=81	=81
2D/	.	2.ryy	2.ryy	2.r	.	2.ryy	.	2.r	.	2.ryy	.	8d\L	8f#\L
.	.	.	.	.	.	.	.	.	.	.	.	8e\J	8g\J
.	.	.	.	.	.	.	.	.	.	.	.	4f#\	4a\
4r	.	.	.	.	.	.	.	.	.	.	.	4d\	4f#\
!LO:LB:g=original	!	!	!	!	!	!	!	!	!	!	!	!	!
=82	=82	=82	=82	=82	=82	=82	=82	=82	=82	=82	=82	=82	=82
4E\	.	2.ryy	2.ryy	2.r	.	2.ryy	.	2.r	.	2.ryy	.	2g\	2g\
4C#/	6	.	.	.	.	.	.	.	.	.	.	.	.
4AA/	.	.	.	.	.	.	.	.	.	.	.	4a\	4a\
=83	=83	=83	=83	=83	=83	=83	=83	=83	=83	=83	=83	=83	=83
2D/	.	2.ryy	2.ryy	2.r	.	2.ryy	.	2.r	.	2.ryy	.	4.f#\	4.f#\
.	.	.	.	.	.	.	.	.	.	.	.	8e\	8e\
4D/	.	.	.	.	.	.	.	.	.	.	.	4d\	4d\
=84	=84	=84	=84	=84	=84	=84	=84	=84	=84	=84	=84	=84	=84
4r	.	2.ryy	2.ryy	2.r	.	2.ryy	.	2.r	.	2.ryy	.	4f#\	4a\
4r	.	.	.	.	.	.	.	.	.	.	.	4d\	4f#\
!LO:TX:t=P:problem=mixed beam	!	!	!	!	!	!	!	!	!	!	!	!	!
16d\LL	.	.	.	.	.	.	.	.	.	.	.	4r	4r
16c#\	.	.	.	.	.	.	.	.	.	.	.	.	.
16d\	.	.	.	.	.	.	.	.	.	.	.	.	.
16D\JJ	.	.	.	.	.	.	.	.	.	.	.	.	.
=85	=85	=85	=85	=85	=85	=85	=85	=85	=85	=85	=85	=85	=85
4r	.	2.ryy	2.ryy	2.r	.	2.ryy	.	2.r	.	2.ryy	.	4e\	4g\
4r	.	.	.	.	.	.	.	.	.	.	.	4A/	4e\
16e\LL	.	.	.	.	.	.	.	.	.	.	.	4r	4r
16d\	.	.	.	.	.	.	.	.	.	.	.	.	.
16c#\	.	.	.	.	.	.	.	.	.	.	.	.	.
16A\JJ	.	.	.	.	.	.	.	.	.	.	.	.	.
=86	=86	=86	=86	=86	=86	=86	=86	=86	=86	=86	=86	=86	=86
8d\L	.	2.ryy	2.ryy	2.r	.	2.ryy	.	2.r	.	2.ryy	.	8d\L	8f#\L
8G\J	6 5	.	.	.	.	.	.	.	.	.	.	8e\J	8g\J
4A\	.	.	.	.	.	.	.	.	.	.	.	4A/	4f#\
4AA/	4:3	.	.	.	.	.	.	.	.	.	.	4A/	4e\
=87	=87	=87	=87	=87	=87	=87	=87	=87	=87	=87	=87	=87	=87
2.D/	.	2.ryy	2.ryy	2.r	.	2.ryy	.	2.r	.	2.ryy	.	4F#/	4d\
.	.	.	.	.	.	.	.	.	.	.	.	4r	4r
.	.	.	.	.	.	.	.	.	.	.	.	4r	4r
!	!	!	!	!	!	!	!	!	!	!	!	!LO:LB:g=original	!LO:LB:g=original
=88||	=88||	=88||	=88||	=88||	=88||	=88||	=88||	=88||	=88||	=88||	=88||	=88||	=88||
*k[f#c#g#]	*	*	*	*	*	*	*	*	*	*	*	*	*
*M4/4	*	*M4/4	*M4/4	*M4/4	*	*M4/4	*	*M4/4	*	*M4/4	*	*M4/4	*M4/4
*met(c)	*	*met(c)	*met(c)	*met(c)	*	*met(c)	*	*met(c)	*	*met(c)	*	*met(c)	*met(c)
!	!	!LO:TX:t=P:problem=metrum zapisane jako c z kropką	!LO:TX:t=P:problem=metrum zapisane jako c z kropką	!	!	!	!	!	!	!	!	!	!
!LO:TX:b:t=Jesu Tibi sit gloria	!	!	!	!	!	!	!	!	!	!	!	!	!
!LO:TX:a:i:t=Solo	!	!	!	!	!	!	!	!	!	!	!	!	!
!LO:TX:t=P:problem=inna tonacja	!	!LO:TX:b:t=Jesu Tibi sit gloria	!LO:TX:b:t=Jesu Tibi sit gloria	!LO:TX:a:t=Jesu Tibi Sit gloria\nTacet	!	!	!	!LO:TX:a:t=Jesu Tibi sit gloria\nTacet	!	!	!	!LO:TX:a:t=Jesu tibi sit gloria\nTacet	!LO:TX:a:t=Jesu tibi sit gloria\nTacet
4AA/	.	8r	8r	1ryy	.	1r	.	1ryy	.	1r	.	1ryy	1ryy
.	.	16a/LL	16cc#\LL	.	.	.	.	.	.	.	.	.	.
.	.	16b/JJ	16dd\JJ	.	.	.	.	.	.	.	.	.	.
4r	.	8cc#\L	8ee\L	.	.	.	.	.	.	.	.	.	.
.	.	8cc#\J	8ee\J	.	.	.	.	.	.	.	.	.	.
2r	.	8cc#\L	8ee\L	.	.	.	.	.	.	.	.	.	.
.	.	8dd\J	8ff#\J	.	.	.	.	.	.	.	.	.	.
.	.	8.cc#\L	8.ee\L	.	.	.	.	.	.	.	.	.	.
.	.	16b\Jk	16dd\Jk	.	.	.	.	.	.	.	.	.	.
=89	=89	=89	=89	=89	=89	=89	=89	=89	=89	=89	=89	=89	=89
8AA/L	.	16a\LL	16cc#\LL	1ryy	.	1r	.	1ryy	.	1r	.	1ryy	1ryy
.	.	16cc#\	16ee\	.	.	.	.	.	.	.	.	.	.
8BB/	.	16cc#\	16ee\	.	.	.	.	.	.	.	.	.	.
.	.	16cc#\JJ	16ee\JJ	.	.	.	.	.	.	.	.	.	.
*	*	*	*custos:ff#	*	*	*	*	*	*	*	*	*	*
8C#/	6	16ff#\LL	16aa\LL	.	.	.	.	.	.	.	.	.	.
.	.	16cc#\	16ee\	.	.	.	.	.	.	.	.	.	.
8AA/J	.	16cc#\	16ee\	.	.	.	.	.	.	.	.	.	.
.	.	16cc#\JJ	16ee\JJ	.	.	.	.	.	.	.	.	.	.
!	!	!	!LO:LB:g=original	!	!	!	!	!	!	!	!	!	!
8BB/L	.	16dd\LL	16ff#\LL	.	.	.	.	.	.	.	.	.	.
.	.	16b\	16dd\	.	.	.	.	.	.	.	.	.	.
8AA/	.	16b\	16dd\	.	.	.	.	.	.	.	.	.	.
.	.	16b\JJ	16dd\JJ	.	.	.	.	.	.	.	.	.	.
8GG#/	6	16cc#\LL	16ee\LL	.	.	.	.	.	.	.	.	.	.
.	.	16a\	16cc#\	.	.	.	.	.	.	.	.	.	.
8EE/J	.	16a\	16cc#\	.	.	.	.	.	.	.	.	.	.
.	.	16a\JJ	16cc#\JJ	.	.	.	.	.	.	.	.	.	.
=90	=90	=90	=90	=90	=90	=90	=90	=90	=90	=90	=90	=90	=90
8AA/L	.	8a/L	8cc#\L	1ryy	.	2r	.	1ryy	.	2r	.	1ryy	1ryy
16C#/L	6	16g#X/L	16b\L	.	.	.	.	.	.	.	.	.	.
16D/JJ	6 5	16f#/JJ	16a\JJ	.	.	.	.	.	.	.	.	.	.
!LO:TX:t=P:problem=mixed beam	!	!	!	!	!	!	!	!	!	!	!	!	!
8E/L	.	8.e/L	8.g#X/L	.	.	.	.	.	.	.	.	.	.
8EE/J	.	.	.	.	.	.	.	.	.	.	.	.	.
.	.	16e/Jk	16g#/Jk	.	.	.	.	.	.	.	.	.	.
4AA/	5 4:3	8a/L	8a/L	.	.	8r	.	.	.	8r	.	.	.
.	.	8a/	8a/	.	.	16A\LL	Je-	.	.	16cc#\LL	Je-	.	.
.	.	.	.	.	.	16B\JJ	.	.	.	16dd\JJ	.	.	.
4r	.	8a/	8a/	.	.	8c#\	-su	.	.	8ee\	-su	.	.
.	.	8a/J	8a/J	.	.	8c#\	Ti-	.	.	8ee\	Ti-	.	.
!LO:LB:g=original	!	!	!	!	!	!	!	!	!	!	!	!	!
=91	=91	=91	=91	=91	=91	=91	=91	=91	=91	=91	=91	=91	=91
2r	.	8e/L	8e/L	1ryy	.	8c#\	-bi	1ryy	.	8ee\	-bi	1ryy	1ryy
.	.	8e/	8e/	.	.	16B\LL	sit	.	.	16dd\LL	sit	.	.
.	.	.	.	.	.	16A\JJ	.	.	.	16cc#\JJ	.	.	.
!	!	!	!	!	!	!LO:LB:g=original	!	!	!	!	!	!	!
.	.	8e/	8e/	.	.	8B\	glo-	.	.	8dd\	glo-	.	.
.	.	8e/J	8e/J	.	.	16A/LL	-ri-	.	.	16cc#\LL	-ri-	.	.
.	.	.	.	.	.	16G/JJ	.	.	.	16b\JJ	.	.	.
!	!	!LO:TX:t=P:problem=mixed beam	!LO:TX:t=P:problem=mixed beam	!	!	!	!	!	!	!	!	!	!
8AA/L	.	16a\LL	16a\LL	.	.	4A/	-a	.	.	4cc#\	-a	.	.
.	.	16ee\	16aa\	.	.	.	.	.	.	.	.	.	.
8BB/	.	16ee\	16aa\	.	.	.	.	.	.	.	.	.	.
*	*	*custos:ee	*	*	*	*	*	*	*	*	*	*	*
.	.	16ee\JJ	16aa\JJ	.	.	.	.	.	.	.	.	.	.
!	!	!LO:LB:g=original	!	!	!	!	!	!	!	!	!	!	!
8C#/	6	16ee\LL	16aa\LL	.	.	4r	.	.	.	4r	.	.	.
.	.	16cc#\	16ee\	.	.	.	.	.	.	.	.	.	.
8AA/J	.	16cc#\	16ee\	.	.	.	.	.	.	.	.	.	.
.	.	16cc#\JJ	16ee\JJ	.	.	.	.	.	.	.	.	.	.
=92	=92	=92	=92	=92	=92	=92	=92	=92	=92	=92	=92	=92	=92
4D/	.	(16dd\LL	(16ff#\LL	1ryy	.	1r	.	1ryy	.	1r	.	1ryy	1ryy
.	.	16cc#\	16ee\	.	.	.	.	.	.	.	.	.	.
.	.	16cc#\	16ee\	.	.	.	.	.	.	.	.	.	.
.	.	16b\JJ)	16dd\JJ)	.	.	.	.	.	.	.	.	.	.
4r	.	(16cc#\LL	(16ee\LL	.	.	.	.	.	.	.	.	.	.
.	.	16b\	16dd\	.	.	.	.	.	.	.	.	.	.
.	.	16b\	16dd\	.	.	.	.	.	.	.	.	.	.
.	.	16a\JJ)	16cc#\JJ)	.	.	.	.	.	.	.	.	.	.
8D/L	.	8a/L	8cc#\L	.	.	.	.	.	.	.	.	.	.
8BB/J	.	8a/J	16b\L	.	.	.	.	.	.	.	.	.	.
.	.	.	16b\JJ	.	.	.	.	.	.	.	.	.	.
!LO:TX:t=P:problem=mixed beam	!	!	!	!	!	!	!	!	!	!	!	!	!
8E\L	.	8e/L	8g#X/L	.	.	.	.	.	.	.	.	.	.
8EE\J	# 4:3	8e/J	8g#/J	.	.	.	.	.	.	.	.	.	.
=93	=93	=93	=93	=93	=93	=93	=93	=93	=93	=93	=93	=93	=93
4AA/	.	4a/	4a/	1ryy	.	8r	.	1ryy	.	8r	.	1ryy	1ryy
.	.	.	.	.	.	16A\LL	Je-	.	.	16cc#\LL	Je-	.	.
.	.	.	.	.	.	16B\JJ	.	.	.	16dd\JJ	.	.	.
4r	.	4r	4r	.	.	8c#\	-su	.	.	8ee\	-su	.	.
.	.	.	.	.	.	8c#\	ti-	.	.	8ee\	ti-	.	.
8AA/L	.	2r	2r	.	.	8c#\	-bi	.	.	8ee\	-bi	.	.
8BB/J	.	.	.	.	.	16B\LL	sit	.	.	16dd\LL	sit	.	.
.	.	.	.	.	.	16A\JJ	.	.	.	16cc#\JJ	.	.	.
!LO:TX:t=P:problem=mixed beam	!	!	!	!	!	!	!	!	!	!	!	!	!
8BB\L	.	.	.	.	.	8B\	glo-	.	.	8dd\	glo-	.	.
8E\J	.	.	.	.	.	16A/LL	-ri-	.	.	16cc#\LL	-ri-	.	.
.	.	.	.	.	.	16G/JJ	.	.	.	16b\JJ	.	.	.
=94	=94	=94	=94	=94	=94	=94	=94	=94	=94	=94	=94	=94	=94
8AA/L	.	1r	1r	1ryy	.	4A/	-a	1ryy	.	4cc#\	-a	1ryy	1ryy
8BB/	.	.	.	.	.	.	.	.	.	.	.	.	.
8C#/	.	.	.	.	.	8r	.	.	.	8r	.	.	.
8E/J	.	.	.	.	.	8G/	Qui	.	.	8b\	Qui	.	.
8AA/L	.	.	.	.	.	8A/	na-	.	.	8cc#\	na-	.	.
8BB/	.	.	.	.	.	8G/	-tus	.	.	8b\	-tus	.	.
!	!	!	!	!	!	!	!	!	!	!LO:LB:g=original	!	!	!
8C#/	6	.	.	.	.	8A/	es	.	.	8cc#\	es	.	.
8AA/J	.	.	.	.	.	8B/	de	.	.	8dd\	de	.	.
=95	=95	=95	=95	=95	=95	=95	=95	=95	=95	=95	=95	=95	=95
8E\L	.	1r	1r	1ryy	.	8.G/	Vir-	1ryy	.	8.b\	Vir-	1ryy	1ryy
8F#\	.	.	.	.	.	.	.	.	.	.	.	.	.
.	.	.	.	.	.	16G/	-gi-	.	.	16b\	-gi-	.	.
8G#\	.	.	.	.	.	4G/	-ne	.	.	4b\	-ne	.	.
8E\J	.	.	.	.	.	.	.	.	.	.	.	.	.
!LO:TX:t=P:problem=mixed beam	!	!	!	!	!	!	!	!	!	!	!	!	!
8A\L	.	.	.	.	.	8r	.	.	.	8r	.	.	.
8AA\J	.	.	.	.	.	16d\LL	Cum	.	.	16ee\LL	Cum	.	.
.	.	.	.	.	.	16c#\JJ	.	.	.	16dd\JJ	.	.	.
4r	.	.	.	.	.	8A\	Pa-	.	.	8cc#\	Pa-	.	.
.	.	.	.	.	.	8B\	-tre	.	.	8dd\	-tre	.	.
=96	=96	=96	=96	=96	=96	=96	=96	=96	=96	=96	=96	=96	=96
!LO:TX:t=P:problem=mixed beam	!	!	!	!	!	!	!	!	!	!	!	!	!
8A\L	.	2r	2r	1ryy	.	8c#\L	et	1ryy	.	8ee\L	et	1ryy	1ryy
8AA\J	.	.	.	.	.	8d\J	.	.	.	8ff#\J	.	.	.
4r	.	.	.	.	.	8c#\	al-	.	.	8ee\	al-	.	.
.	.	.	.	.	.	8B\	-mo	.	.	8dd\	-mo	.	.
!LO:TX:t=P:problem=mixed beam	!	!	!	!	!	!	!	!	!	!	!	!	!
!	!	!	!LO:LB:g=original	!	!	!	!	!	!	!	!	!	!
8A\L	.	8r	8r	.	.	16A/	Spi-	.	.	16cc#\	Spi-	.	.
.	.	.	.	.	.	16A/	-ri-	.	.	16b\	-ri-	.	.
8AA\J	.	16cc#\LL	16ee\LL	.	.	8A/	-tu	.	.	8a\	-tu	.	.
.	.	16b\JJ	16dd\JJ	.	.	.	.	.	.	.	.	.	.
4r	.	8a\L	8cc#\L	.	.	8r	.	.	.	4r	.	.	.
!	!	!	!	!	!	!LO:N:vis=4	!	!	!	!	!	!	!
.	.	8b\J	8dd\J	.	.	8r	.	.	.	.	.	.	.
=97	=97	=97	=97	=97	=97	=97	=97	=97	=97	=97	=97	=97	=97
!LO:TX:t=P:problem=mixed beam	!	!	!	!	!	!	!	!	!	!	!	!	!
8A\L	.	8cc#\L	8ee\L	1ryy	.	2r	.	1ryy	.	2r	.	1ryy	1ryy
8AA\J	.	8dd\J	8ff#\	.	.	.	.	.	.	.	.	.	.
4r	.	8cc#\L	8ee\	.	.	.	.	.	.	.	.	.	.
.	.	8b\J	8dd\J	.	.	.	.	.	.	.	.	.	.
!LO:TX:t=P:problem=mixed beam	!	!	!	!	!	!	!	!	!	!	!	!	!
8A\L	.	8a/L	16cc#\LL	.	.	8r	.	.	.	8r	.	.	.
.	.	.	16b\J	.	.	.	.	.	.	.	.	.	.
8AA\J	.	8a/J	8a\J	.	.	16c#\LL	Cum	.	.	16ee\LL	Cum	.	.
.	.	.	.	.	.	16B\JJ	.	.	.	16dd\JJ	.	.	.
4r	.	4r	4r	.	.	8A/	Pa-	.	.	8cc#\	Pa-	.	.
.	.	.	.	.	.	8B\	-tre	.	.	8dd\	-tre	.	.
=98	=98	=98	=98	=98	=98	=98	=98	=98	=98	=98	=98	=98	=98
!LO:TX:t=P:problem=mixed beam	!	!	!	!	!	!	!	!	!	!	!	!	!
8A\L	.	1r	1r	1ryy	.	8c#\L	et	1ryy	.	8ee\L	et	1ryy	1ryy
8AA\J	.	.	.	.	.	8d\J	.	.	.	8ff#\J	.	.	.
4r	.	.	.	.	.	8c#\	al-	.	.	8ee\	al-	.	.
!	!	!	!	!	!	!LO:LB:g=original	!	!	!	!	!	!	!
.	.	.	.	.	.	8B\	-mo	.	.	8dd\	-mo	.	.
!LO:LB:g=original	!	!	!	!	!	!	!	!	!	!	!	!	!
!LO:TX:t=P:problem=mixed beam	!	!	!	!	!	!	!	!	!	!	!	!	!
8A\L	.	.	.	.	.	16A/	Spi-	.	.	16cc#\	Spi-	.	.
.	.	.	.	.	.	16A/	-ri-	.	.	16b\	-ri-	.	.
!	!	!	!	!	!	!	!	!	!	!LO:LB:g=original	!	!	!
16AA\L	.	.	.	.	.	8A/	-tu	.	.	8a\	-tu	.	.
16BB\J	.	.	.	.	.	.	.	.	.	.	.	.	.
8C#\	6	.	.	.	.	8r	.	.	.	8r	.	.	.
!	!	!	!	!	!	!LO:N:vis=4	!	!	!	!	!	!	!
8AA\J	.	.	.	.	.	8r	.	.	.	8ee\	in	.	.
=99	=99	=99	=99	=99	=99	=99	=99	=99	=99	=99	=99	=99	=99
1r	.	8a/L	8a/L	1ryy	.	2r	.	1ryy	.	4.ee\	Sem-	1ryy	1ryy
.	.	8b/	8b/	.	.	.	.	.	.	.	.	.	.
.	.	8cc#/	8cc#/	.	.	.	.	.	.	.	.	.	.
.	.	8a/J	8a/J	.	.	.	.	.	.	16dd\LL	.	.	.
.	.	.	.	.	.	.	.	.	.	16cc#\JJ	.	.	.
.	.	8b/L	8b/L	.	.	4r	.	.	.	4.dd\	.	.	.
.	.	8a/	8a/	.	.	.	.	.	.	.	.	.	.
.	.	8g/	8g/	.	.	8r	.	.	.	.	.	.	.
.	.	8e/J	8e/J	.	.	8e\	in	.	.	16cc#\LL	.	.	.
.	.	.	.	.	.	.	.	.	.	16b\JJ	.	.	.
=100	=100	=100	=100	=100	=100	=100	=100	=100	=100	=100	=100	=100	=100
1r	.	8a/L	8a/L	1ryy	.	4.e\	Sem-	1ryy	.	4.cc#\	-pi-	1ryy	1ryy
.	.	8b/	8b/	.	.	.	.	.	.	.	.	.	.
.	.	8cc#/	8cc#/	.	.	.	.	.	.	.	.	.	.
*	*	*custos:b	*	*	*	*	*	*	*	*	*	*	*
.	.	8a/J	8a/J	.	.	16d\LL	-pi-	.	.	16b\LL	.	.	.
.	.	.	.	.	.	16c#\JJ	.	.	.	16a\JJ	.	.	.
!	!	!LO:LB:g=original	!	!	!	!	!	!	!	!	!	!	!
.	.	8b/L	8b/L	.	.	4.d\	-ter-	.	.	4.b\	-ter-	.	.
.	.	8a/	8a/	.	.	.	.	.	.	.	.	.	.
.	.	8g/	8g/	.	.	.	.	.	.	.	.	.	.
.	.	8e/J	8e/J	.	.	16c#\LL	.	.	.	16a\LL	.	.	.
.	.	.	.	.	.	16B\JJ	.	.	.	16g\JJ	.	.	.
=101	=101	=101	=101	=101	=101	=101	=101	=101	=101	=101	=101	=101	=101
2r	.	8a/L	8a/L	1ryy	.	8A/	-na	1ryy	.	8cc#\	-na	1ryy	1ryy
.	.	8e/	8e/	.	.	8G/	in	.	.	8b\	in	.	.
.	.	8a/	8a/	.	.	8A/	Sem-	.	.	8cc#\	Sem-	.	.
.	.	8e/J	8e/J	.	.	8G/	-pi-	.	.	8b\	-pi-	.	.
!	!	!	!	!	!	!LO:LB:g=original	!	!	!	!	!	!	!
4r	.	8a/L	8a/L	.	.	8A/	-ter-	.	.	8cc#\	-ter-	.	.
.	.	8e/J	8e/J	.	.	8G/	-na	.	.	8b\	-na	.	.
!LO:TX:t=P:problem=mixed beam	!	!	!	!	!	!	!	!	!	!	!	!	!
8A\L	.	(16ee\LL	(16aa\LL	.	.	4r	.	.	.	4r	.	.	.
.	.	16cc#\	16ee\	.	.	.	.	.	.	.	.	.	.
8AA\J	.	16cc#\	16ee\	.	.	.	.	.	.	.	.	.	.
.	.	16a\JJ)	16cc#\JJ)	.	.	.	.	.	.	.	.	.	.
=102	=102	=102	=102	=102	=102	=102	=102	=102	=102	=102	=102	=102	=102
8AA/L	.	1r	1r	1ryy	.	4r	.	1ryy	.	4r	.	1ryy	1ryy
8BB/	.	.	.	.	.	.	.	.	.	.	.	.	.
8C#/	.	.	.	.	.	8r	.	.	.	8r	.	.	.
8E/J	.	.	.	.	.	8G/	in	.	.	8b\	in	.	.
4AA/	.	.	.	.	.	8A/	Sem-	.	.	8cc#\	Sem-	.	.
.	.	.	.	.	.	8B\	-pi-	.	.	8dd\	-pi-	.	.
4r	.	.	.	.	.	8c#\	-ter-	.	.	8ee\	-ter-	.	.
.	.	.	.	.	.	8d\	-na	.	.	8ff#\	-na	.	.
=103	=103	=103	=103	=103	=103	=103	=103	=103	=103	=103	=103	=103	=103
!LO:N:vis=4	!	!	!	!	!	!	!	!	!	!	!	!	!
8AA/	.	4A/	4A/	1ryy	.	8.c#\	Sae-	1ryy	.	8.ee\	Sae-	1ryy	1ryy
!LO:N:vis=4	!	!	!	!	!	!	!	!	!	!	!	!	!
8r	.	.	.	.	.	.	.	.	.	.	.	.	.
.	.	.	.	.	.	16B\	-cu-	.	.	16dd\	-cu-	.	.
8r	.	4r	4r	.	.	8A/	-la	.	.	8cc#\	-la	.	.
8E\	.	.	.	.	.	8G/	in	.	.	8b\	in	.	.
!	!	!	!	!	!	!	!	!	!	!LO:LB:g=original	!	!	!
8B\L	.	2r	2r	.	.	8B\	Sem-	.	.	8dd\	Sem-	.	.
8A\	.	.	.	.	.	8A/	-pi-	.	.	8b\	-pi-	.	.
8G#\	.	.	.	.	.	8B\	-ter-	.	.	8dd\	-ter-	.	.
8E\J	.	.	.	.	.	8c#\	-na	.	.	8ee\	-na	.	.
!	!	!	!LO:LB:g=original	!	!	!	!	!	!	!	!	!	!
=104	=104	=104	=104	=104	=104	=104	=104	=104	=104	=104	=104	=104	=104
4AA/	.	1r	1r	1ryy	.	8A/	Sae-	1ryy	.	8cc#\	Sae-	1ryy	1ryy
.	.	.	.	.	.	16A/	-cu-	.	.	16cc#\	-cu-	.	.
.	.	.	.	.	.	16A/	-la	.	.	16cc#\	-la	.	.
4r	.	.	.	.	.	16A/LL	a-	.	.	16cc#\LL	a-	.	.
.	.	.	.	.	.	16G/	.	.	.	16b\	.	.	.
.	.	.	.	.	.	16A/	.	.	.	16cc#\	.	.	.
.	.	.	.	.	.	16B/JJ	.	.	.	16dd\JJ	.	.	.
8AA/L	.	.	.	.	.	8c#\	.	.	.	8ee\	.	.	.
16C#/L	6	.	.	.	.	8A/	men	.	.	(16dd\LL	men	.	.
16D/JJ	6 5	.	.	.	.	.	.	.	.	16cc#\JJ)	.	.	.
!LO:TX:t=P:problem=mixed beam	!	!	!	!	!	!	!	!	!	!	!	!	!
8E/L	.	.	.	.	.	4G/	a-	.	.	4b\	a-	.	.
8EE/J	4:3	.	.	.	.	.	.	.	.	.	.	.	.
=105	=105	=105	=105	=105	=105	=105	=105	=105	=105	=105	=105	=105	=105
4AA/	.	8r	8r	1ryy	.	4A/	-men	1ryy	.	4a\	-men.	1ryy	1ryy
.	.	16a/LL	16cc#\LL	.	.	.	.	.	.	.	.	.	.
.	.	16b/JJ	16dd\JJ	.	.	.	.	.	.	.	.	.	.
4r	.	8cc#\L	8ee\L	.	.	4r	.	.	.	4r	.	.	.
.	.	8cc#\J	8ee\J	.	.	.	.	.	.	.	.	.	.
2r	.	8cc#\L	8ee\L	.	.	2r	.	.	.	2r	.	.	.
.	.	8dd\J	8ff#\J	.	.	.	.	.	.	.	.	.	.
.	.	8.cc#\L	8.ee\L	.	.	.	.	.	.	.	.	.	.
.	.	16b\Jk	16dd\Jk	.	.	.	.	.	.	.	.	.	.
=106	=106	=106	=106	=106	=106	=106	=106	=106	=106	=106	=106	=106	=106
4AA/	.	8a\L	8cc#\L	1ryy	.	1r	.	1ryy	.	1r	.	1ryy	1ryy
.	.	8dd\J	16aa\L	.	.	.	.	.	.	.	.	.	.
.	.	.	16gg\JJ	.	.	.	.	.	.	.	.	.	.
4D/	.	16dd\LL	16ff#\LL	.	.	.	.	.	.	.	.	.	.
.	.	16cc#\	16ee\	.	.	.	.	.	.	.	.	.	.
.	.	16b\	16dd\	.	.	.	.	.	.	.	.	.	.
.	.	16a\JJ	16cc#\JJ	.	.	.	.	.	.	.	.	.	.
8E\L	.	8g#X/L	8b/L	.	.	.	.	.	.	.	.	.	.
16E\L	.	8g#/J	8b/J	.	.	.	.	.	.	.	.	.	.
16F#\JJ	.	.	.	.	.	.	.	.	.	.	.	.	.
8G#\L	6	8r	8r	.	.	.	.	.	.	.	.	.	.
8E\J	.	8cc#\	8ee\	.	.	.	.	.	.	.	.	.	.
!LO:LB:g=original	!	!	!	!	!	!	!	!	!	!	!	!	!
=107	=107	=107	=107	=107	=107	=107	=107	=107	=107	=107	=107	=107	=107
4AA/	.	16cc#\LL	16ee\LL	1ryy	.	1r	.	1ryy	.	1r	.	1ryy	1ryy
.	.	16cc#\	16ee\	.	.	.	.	.	.	.	.	.	.
.	.	16cc#\	16ee\	.	.	.	.	.	.	.	.	.	.
*	*	*custos:cc#	*	*	*	*	*	*	*	*	*	*	*
.	.	16cc#\JJ	16ee\JJ	.	.	.	.	.	.	.	.	.	.
!	!	!LO:LB:g=original	!	!	!	!	!	!	!	!	!	!	!
8r	.	16cc#\LL	16ee\LL	.	.	.	.	.	.	.	.	.	.
.	.	16cc#\	16ee\	.	.	.	.	.	.	.	.	.	.
8AA/	.	16cc#\	16ee\	.	.	.	.	.	.	.	.	.	.
.	.	16cc#\JJ	16ee\JJ	.	.	.	.	.	.	.	.	.	.
4BB/	.	16b\LL	16dd\LL	.	.	.	.	.	.	.	.	.	.
.	.	16b\	16dd\	.	.	.	.	.	.	.	.	.	.
.	.	16b\	16dd\	.	.	.	.	.	.	.	.	.	.
.	.	16b\JJ	16dd\JJ	.	.	.	.	.	.	.	.	.	.
8r	.	16b\LL	16dd\LL	.	.	.	.	.	.	.	.	.	.
.	.	16b\	16dd\	.	.	.	.	.	.	.	.	.	.
8BB/	.	16b\	16dd\	.	.	.	.	.	.	.	.	.	.
.	.	16b\JJ	16dd\JJ	.	.	.	.	.	.	.	.	.	.
=108	=108	=108	=108	=108	=108	=108	=108	=108	=108	=108	=108	=108	=108
8AA/L	.	8a/L	8cc#/L	1ryy	.	1r	.	1ryy	.	1r	.	1ryy	1ryy
16C#/L	6	8a/J	16b/L	.	.	.	.	.	.	.	.	.	.
16D/JJ	6 5	.	16a/JJ	.	.	.	.	.	.	.	.	.	.
!LO:TX:t=P:problem=mixed beam	!	!	!	!	!	!	!	!	!	!	!	!	!
8E\L	.	8g#X/L	8g/L	.	.	.	.	.	.	.	.	.	.
8EE\J	# 4:3	8g#/J	8g/J	.	.	.	.	.	.	.	.	.	.
4AA/	.	4a/	4a/	.	.	.	.	.	.	.	.	.	.
4r	.	4r	4r	.	.	.	.	.	.	.	.	.	.
!	!	!	!LO:LB:g=original	!	!	!LO:LB:g=original	!	!	!	!	!	!	!
=109||	=109||	=109||	=109||	=109||	=109||	=109||	=109||	=109||	=109||	=109||	=109||	=109||	=109||
*k[f#c#g#]	*	*	*	*	*	*	*	*	*	*	*	*	*
*M12/8	*	*M12/8	*M12/8	*M12/8	*	*M12/8	*	*M12/8	*	*M12/8	*	*M12/8	*M12/8
!LO:TX:b:t=Jesu Tibi sit gloria	!	!LO:TX:b:t=Jesu Tibi	!	!	!	!	!	!	!	!	!	!	!LO:TX:b:t=Jesu
8D/L	.	1.r	16d/LL	1.r	.	1.r	.	1.r	.	1.r	.	1.r	8D/L
.	.	.	16d/	.	.	.	.	.	.	.	.	.	.
8D/	.	.	16d/	.	.	.	.	.	.	.	.	.	8D/
.	.	.	16d/	.	.	.	.	.	.	.	.	.	.
8D/J	.	.	16d/	.	.	.	.	.	.	.	.	.	8D/J
.	.	.	16d/JJ	.	.	.	.	.	.	.	.	.	.
8D/L	.	.	16d/LL	.	.	.	.	.	.	.	.	.	8D/L
.	.	.	16d/	.	.	.	.	.	.	.	.	.	.
8D/	.	.	16d/	.	.	.	.	.	.	.	.	.	8D/
.	.	.	16d/	.	.	.	.	.	.	.	.	.	.
8D/J	.	.	16d/	.	.	.	.	.	.	.	.	.	8D/J
.	.	.	16d/JJ	.	.	.	.	.	.	.	.	.	.
8D/L	.	.	16f#/LL	.	.	.	.	.	.	.	.	.	8D/L
.	.	.	16d/	.	.	.	.	.	.	.	.	.	.
8D/	.	.	16d/	.	.	.	.	.	.	.	.	.	8D/
.	.	.	16d/	.	.	.	.	.	.	.	.	.	.
8D/J	.	.	16d/	.	.	.	.	.	.	.	.	.	8D/J
.	.	.	16d/JJ	.	.	.	.	.	.	.	.	.	.
8D/L	.	.	16f#/LL	.	.	.	.	.	.	.	.	.	8D/L
.	.	.	16d/	.	.	.	.	.	.	.	.	.	.
8D/	.	.	16d/	.	.	.	.	.	.	.	.	.	8D/
.	.	.	16d/	.	.	.	.	.	.	.	.	.	.
8D/J	.	.	16d/	.	.	.	.	.	.	.	.	.	8D/J
.	.	.	16d/JJ	.	.	.	.	.	.	.	.	.	.
=110	=110	=110	=110	=110	=110	=110	=110	=110	=110	=110	=110	=110	=110
8D/L	.	16d/LL	16f#/LL	1.r	.	1.r	.	1.r	.	1.r	.	8D/L	8F#/L
.	.	16d/	16f#/	.	.	.	.	.	.	.	.	.	.
8D/	.	16d/	16f#/	.	.	.	.	.	.	.	.	8D/	8F#/
.	.	16d/	16f#/	.	.	.	.	.	.	.	.	.	.
8D/J	.	16d/	16f#/	.	.	.	.	.	.	.	.	8D/J	8F#/J
.	.	16d/JJ	16f#/JJ	.	.	.	.	.	.	.	.	.	.
8D/L	.	16d/LL	16f#/LL	.	.	.	.	.	.	.	.	8D/L	8F#/L
.	.	16d/	16f#/	.	.	.	.	.	.	.	.	.	.
8D/	.	16d/	16f#/	.	.	.	.	.	.	.	.	8D/	8F#/
.	.	16d/	16f#/	.	.	.	.	.	.	.	.	.	.
8D/J	.	16d/	16f#/	.	.	.	.	.	.	.	.	8D/J	8F#/J
.	.	16d/JJ	16f#/JJ	.	.	.	.	.	.	.	.	.	.
8D/L	.	16f#/LL	16a/LL	.	.	.	.	.	.	.	.	8D/L	8F#/L
.	.	16d/	16f#/	.	.	.	.	.	.	.	.	.	.
8D/	.	16d/	16f#/	.	.	.	.	.	.	.	.	8D/	8F#/
.	.	16d/	16f#/	.	.	.	.	.	.	.	.	.	.
8D/J	.	16d/	16f#/	.	.	.	.	.	.	.	.	8D/J	8F#/J
.	.	16d/JJ	16f#/JJ	.	.	.	.	.	.	.	.	.	.
8D/L	.	16f#/LL	16a/LL	.	.	.	.	.	.	.	.	8D/L	8F#/L
.	.	16d/	16f#/	.	.	.	.	.	.	.	.	.	.
8D/	.	16d/	16f#/	.	.	.	.	.	.	.	.	8D/	8F#/
.	.	16d/	16f#/	.	.	.	.	.	.	.	.	.	.
8D/J	.	16d/	16f#/	.	.	.	.	.	.	.	.	8D/J	8F#/J
.	.	16d/JJ	16f#/JJ	.	.	.	.	.	.	.	.	.	.
=111	=111	=111	=111	=111	=111	=111	=111	=111	=111	=111	=111	=111	=111
8D\L	.	16ff#\LL	16ddd\LL	8D/	Je-	8d\	Je-	8a\	Je-	8ff#\	Je-	8d\L	8f#\L
.	.	16aa\	16ddd\	.	.	.	.	.	.	.	.	.	.
8F#\	6	16ff#\	16ddd\	8D/	-su	8d\	-su	8a\	-su	8ff#\	-su	8d\	8f#\
.	.	16aa\	16ddd\	.	.	.	.	.	.	.	.	.	.
8D\J	.	16ff#\	16ddd\	8D/	Ti-	8d\	Ti-	8a\	ti-	8ff#\	Ti-	8d\J	8f#\J
*	*	*custos:ee	*	*	*	*	*	*	*	*	*	*	*
.	.	16aa\JJ	16ddd\JJ	.	.	.	.	.	.	.	.	.	.
*	*	*	*custos:ccc#	*	*	*	*	*	*	*	*	*	*
!	!	!LO:LB:g=original	!	!	!	!	!	!	!	!	!	!	!
8AA/L	.	16ee\LL	16ccc#\LL	4AA/	-bi	4c#\	-bi	4a\	-bi	4ee\	-bi	8A/L	8e\L
.	.	16aa\	16ccc#\	.	.	.	.	.	.	.	.	.	.
8C#/	6	16ee\	16ccc#\	.	.	.	.	.	.	.	.	8A/	8e\
.	.	16aa\	16ccc#\	.	.	.	.	.	.	.	.	.	.
8AA/J	.	16ee\	16ccc#\	8AA/	sit	8c#\	sit	8a\	sit	8ee\	sit	8A/J	8e\J
.	.	16aa\JJ	16ccc#\JJ	.	.	.	.	.	.	.	.	.	.
!LO:LB:g=original	!	!	!LO:LB:g=original	!	!	!	!	!	!	!	!	!	!
8AA/L	.	16ee\LL	16ccc#\LL	8AA/	glo-	8c#\	glo-	8a\	glo-	8ee\	glo-	8A/L	8e\L
.	.	16aa\	16ccc#\	.	.	.	.	.	.	.	.	.	.
8C#/	.	16ee\	16ccc#\	8AA/	-ri-	8c#\	-ri-	8a\	-ri-	8ee\	-ri-	8A/	8e\
.	.	16aa\	16ccc#\	.	.	.	.	.	.	.	.	.	.
8AA/J	.	16ee\	16ccc#\	8AA/	-a	8c#\	-a	8a\	-a	8ee\	-a	8A/J	8e\J
.	.	16aa\JJ	16ccc#\JJ	.	.	.	.	.	.	.	.	.	.
!	!	!	!	!	!	!	!	!	!	!LO:LB:g=original	!	!	!
4D/	.	8ff#\L	8ddd\L	8.D/	glo-	8.d\	glo-	8a\	glo-	8.ff#\	glo-	4d\	4f#\
!	!	!	!	!	!	!	!	!LO:LB:g=original	!	!	!	!	!
.	.	8ff#\	8ddd\	.	.	.	.	8a\	-ri-	.	.	.	.
.	.	.	.	16D/	-ri-	16d\	-ri-	.	.	16ff#\	-ri-	.	.
8D/	.	8ff#\J	8ddd\J	8D/	-a	8d\	-a	8a\	-a	8ff#\	-a	8d\	8f#\
=112	=112	=112	=112	=112	=112	=112	=112	=112	=112	=112	=112	=112	=112
8D/L	.	1.r	16d/LL	1.r	.	1.r	.	1.r	.	1.r	.	1.r	8D/L
.	.	.	16d/	.	.	.	.	.	.	.	.	.	.
8D/	.	.	16d/	.	.	.	.	.	.	.	.	.	8D/
.	.	.	16d/	.	.	.	.	.	.	.	.	.	.
8D/J	.	.	16d/	.	.	.	.	.	.	.	.	.	8D/J
.	.	.	16d/JJ	.	.	.	.	.	.	.	.	.	.
8D/L	.	.	16d/LL	.	.	.	.	.	.	.	.	.	8D/L
.	.	.	16d/	.	.	.	.	.	.	.	.	.	.
8D/	.	.	16d/	.	.	.	.	.	.	.	.	.	8D/
.	.	.	16d/	.	.	.	.	.	.	.	.	.	.
8D/J	.	.	16d/	.	.	.	.	.	.	.	.	.	8D/J
.	.	.	16d/JJ	.	.	.	.	.	.	.	.	.	.
8D/L	.	.	16f#/LL	.	.	.	.	.	.	.	.	.	8D/L
.	.	.	16d/	.	.	.	.	.	.	.	.	.	.
8D/	.	.	16d/	.	.	.	.	.	.	.	.	.	8D/
.	.	.	16d/	.	.	.	.	.	.	.	.	.	.
8D/J	.	.	16d/	.	.	.	.	.	.	.	.	.	8D/J
.	.	.	16d/JJ	.	.	.	.	.	.	.	.	.	.
!	!	!	!	!	!	!	!	!	!	!	!	!	!LO:LB:g=original
8D/L	.	.	16f#/LL	.	.	.	.	.	.	.	.	.	8D/L
.	.	.	16d/	.	.	.	.	.	.	.	.	.	.
8D/	.	.	16d/	.	.	.	.	.	.	.	.	.	8D/
.	.	.	16d/	.	.	.	.	.	.	.	.	.	.
8D/J	.	.	16d/	.	.	.	.	.	.	.	.	.	8D/J
.	.	.	16d/JJ	.	.	.	.	.	.	.	.	.	.
=113	=113	=113	=113	=113	=113	=113	=113	=113	=113	=113	=113	=113	=113
8D/L	.	16d/LL	16f#/LL	1.r	.	1.r	.	1.r	.	1.r	.	8D/L	8F#/L
.	.	16d/	16f#/	.	.	.	.	.	.	.	.	.	.
8D/	.	16d/	16f#/	.	.	.	.	.	.	.	.	8D/	8F#/
.	.	16d/	16f#/	.	.	.	.	.	.	.	.	.	.
8D/J	.	16d/	16f#/	.	.	.	.	.	.	.	.	8D/J	16F#/L
.	.	16d/JJ	16f#/JJ	.	.	.	.	.	.	.	.	.	16F#/JJ
8D/L	.	16d/LL	16f#/LL	.	.	.	.	.	.	.	.	8D/L	8F#/L
.	.	16d/	16f#/	.	.	.	.	.	.	.	.	.	.
8D/	.	16d/	16f#/	.	.	.	.	.	.	.	.	8D/	8F#/
.	.	16d/	16f#/	.	.	.	.	.	.	.	.	.	.
8D/J	.	16d/	16f#/	.	.	.	.	.	.	.	.	8D/J	8F#/J
.	.	16d/JJ	16f#/JJ	.	.	.	.	.	.	.	.	.	.
8D/L	.	16f#/LL	16a/LL	.	.	.	.	.	.	.	.	8D/L	8F#/L
.	.	16d/	16f#/	.	.	.	.	.	.	.	.	.	.
8D/	.	16d/	16f#/	.	.	.	.	.	.	.	.	8D/	8F#/
.	.	16d/	16f#/	.	.	.	.	.	.	.	.	.	.
8D/J	.	16d/	16f#/	.	.	.	.	.	.	.	.	8D/J	8F#/J
.	.	16d/JJ	16f#/JJ	.	.	.	.	.	.	.	.	.	.
8D/L	.	16f#/LL	16a/LL	.	.	.	.	.	.	.	.	8D/L	8F#/L
.	.	16d/	16f#/	.	.	.	.	.	.	.	.	.	.
8D/	.	16d/	16f#/	.	.	.	.	.	.	.	.	8D/	8F#/
.	.	16d/	16f#/	.	.	.	.	.	.	.	.	.	.
8D/J	.	16d/	16f#/	.	.	.	.	.	.	.	.	8D/J	8F#/J
*	*	*	*custos:ddd	*	*	*	*	*	*	*	*	*	*
.	.	16d/JJ	16f#/JJ	.	.	.	.	.	.	.	.	.	.
!	!	!	!LO:LB:g=original	!	!	!	!	!	!	!	!	!	!
=114	=114	=114	=114	=114	=114	=114	=114	=114	=114	=114	=114	=114	=114
8D\L	.	16ff#\LL	16ddd\LL	8D/	Je-	8d\	Je-	8f#\	Je-	8ff#\	Je-	8d\L	8f#\L
.	.	16aa\	16ddd\	.	.	.	.	.	.	.	.	.	.
8F#\	6	16ff#\	16ddd\	8D/	-su	8f#\	-su	8a\	-su	8ff#\	-su	8d\	8f#\
.	.	16aa\	16ddd\	.	.	.	.	.	.	.	.	.	.
8D\J	.	16ff#\	16ddd\	8D/	Ti-	8d\	Ti-	8f#\	ti-	8ff#\	Ti-	8d\J	8f#\J
.	.	16aa\JJ	16ddd\JJ	.	.	.	.	.	.	.	.	.	.
!	!	!	!	!LO:LB:g=original	!	!	!	!	!	!	!	!	!
8AA/L	.	16ee\LL	16ccc#\LL	4AA/	-bi	4f#\	-bi	4a\	-bi	4ee\	-bi	8A/L	8e\L
.	.	16aa\	16ccc#\	.	.	.	.	.	.	.	.	.	.
8C#/	6	16ee\	16ccc#\	.	.	.	.	.	.	.	.	8A/	8e\
.	.	16aa\	16ccc#\	.	.	.	.	.	.	.	.	.	.
8AA/J	.	16ee\	16ccc#\	8AA/	sit	8c#\	sit	8a\	sit	8ee\	sit	8A/J	8e\J
.	.	16aa\JJ	16ccc#\JJ	.	.	.	.	.	.	.	.	.	.
8AA/L	.	16ee\LL	16ccc#\LL	8AA/	glo-	8c#\	glo-	8a\	glo-	8ee\	glo-	8A/L	8e\L
.	.	16aa\	16ccc#\	.	.	.	.	.	.	.	.	.	.
8C#/	6	16ee\	16ccc#\	8AA/	-ri-	8c#\	-ri-	8a\	-ri-	8ee\	-ri-	8A/	8e\
.	.	16aa\	16ccc#\	.	.	.	.	.	.	.	.	.	.
8AA/J	.	16ee\	16ccc#\	8AA/	-a	8c#\	-a	8a\	-a	8ee\	-a	8A/J	8e\J
*	*	*custos:ff#	*	*	*	*	*	*	*	*	*	*	*
.	.	16aa\JJ	16ccc#\JJ	.	.	.	.	.	.	.	.	.	.
!	!	!LO:LB:g=original	!	!	!	!	!	!	!	!	!	!	!
4D/	.	8ff#\L	8ddd\L	8.D/	glo-	8.d\	glo-	8a\	glo-	8ff#\	glo-	4d\	4f#\
.	.	8ff#\	8ddd\	.	.	.	.	8a\	-ri-	8ff#\	-ri-	.	.
.	.	.	.	16D/	-ri-	16d\	-ri-	.	.	.	.	.	.
8D/	.	8ff#\J	8ddd\J	8D/	-a	8d\	-a	8a\	-a	8ff#\	-a	8d\	8f#\
!	!	!	!	!	!	!	!	!	!	!	!	!LO:LB:g=original	!
=115	=115	=115	=115	=115	=115	=115	=115	=115	=115	=115	=115	=115	=115
16c#\LL	.	16dd\LL	16ff#\LL	8D\	qui	8g\	Je-	8f#\	qui	8dd\	Je-	8d\L	8f#\L
16D\	.	16dd\	16ff#\	.	.	.	.	.	.	.	.	.	.
16D\	.	16dd\	16ff#\	8F#\	na-	8d\	-su	8a\	na-	8ff#\	-su	8d\	8f#\
16E\	.	16dd\	16ff#\	.	.	.	.	.	.	.	.	.	.
16F#\	6	16dd\	16ff#\	8D\	-tus	8f#\	Ti-	8f#\	-tus	8dd\	Ti-	8d\J	8f#\J
16D\JJ	.	16dd\JJ	16ff#\JJ	.	.	.	.	.	.	.	.	.	.
!LO:LB:g=original	!	!	!	!	!	!	!	!	!	!	!	!	!
!LO:TX:t=P:problem=mixed beam	!	!	!	!	!	!	!	!	!	!	!	!	!
!	!	!	!	!	!	!LO:LB:g=original	!	!	!	!	!	!	!
16A\LL	.	16cc#\LL	16ee\LL	4A\	es	4e\	-bi	4e\	es	4cc#\	-bi	8A/L	8e\L
16AA\	.	16cc#\	16ee\	.	.	.	.	.	.	.	.	.	.
16AA\	.	16cc#\	16ee\	.	.	.	.	.	.	.	.	8A/	8e\
16BB\	.	16cc#\	16ee\	.	.	.	.	.	.	.	.	.	.
16C#\	6	16cc#\	16ee\	8A\	de	8c#\	sit	8e\	de	8ee\	sit	8A/J	8e\J
16AA\JJ	.	16cc#\JJ	16ee\JJ	.	.	.	.	.	.	.	.	.	.
8.D/L	.	16dd\LL	16ff#\LL	8.d\	Vir-	8.d\	glo-	8.f#\	Vir-	8.ff#\	glo-	8d\L	8f#\L
.	.	16dd\	16ff#\	.	.	.	.	.	.	.	.	.	.
.	.	16dd\	16ff#\	.	.	.	.	.	.	.	.	8d\	8f#\
16D/K	.	16dd\	16ff#\	16d\	-gi-	16d\	-ri-	16f#\	-gi-	16ff#\	-ri-	.	.
8D/J	.	16dd\	16ff#\	8d\	-ne	8d\	-a	8f#\	-ne	8ff#\	-a	8d\J	8f#\J
.	.	16dd\JJ	16ff#\JJ	.	.	.	.	.	.	.	.	.	.
8r	.	16cc#\LL	16ee\LL	8r	.	8r	.	8r	.	8r	.	8A/L	8e\L
.	.	16cc#\	16ee\	.	.	.	.	.	.	.	.	.	.
8r	.	16cc#\	16ee\	8r	.	8r	.	8r	.	8r	.	8A/	8e\
.	.	16cc#\	16ee\	.	.	.	.	.	.	.	.	.	.
8AA/	.	16cc#\	16ee\	8A\	Cum	8c#\	-qui	8e\	Cum	8ee\	-qui	8A/J	8e\J
.	.	16cc#\JJ	16ee\JJ	.	.	.	.	.	.	.	.	.	.
=116	=116	=116	=116	=116	=116	=116	=116	=116	=116	=116	=116	=116	=116
8D\L	.	16dd\LL	16ff#\LL	4D/	Pa-	4d\	na-	4f#\	Pa-	4dd\	na-	8d\L	8f#\L
.	.	16ff#\	16aa\	.	.	.	.	.	.	.	.	.	.
8F#\	6	16dd\	16ff#\	.	.	.	.	.	.	.	.	8f#\	8a\
.	.	16ff#\	16aa\	.	.	.	.	.	.	.	.	.	.
8D\J	.	16dd\	16ff#\	8D/	-tre	8d\	-tus	8a\	-tre	8ff#\	-tus	8d\J	8f#\J
.	.	16ff#\JJ	16aa\JJ	.	.	.	.	.	.	.	.	.	.
!	!	!	!	!	!	!	!	!	!	!LO:LB:g=original	!	!	!
8AA/L	.	16cc#\LL	16ee\LL	4AA/	Pa-	4c#\	es	8e\	et	(8ee\	es	8A/L	8e\L
.	.	16cc#\	16ee\	.	.	.	.	.	.	.	.	.	.
8C#/	.	16cc#\	16ee\	.	.	.	.	8e\	al-	8cc#\)	.	8A/	8e\
.	.	16cc#\	16ee\	.	.	.	.	.	.	.	.	.	.
8AA/J	.	16cc#\	16ee\	8AA/	-tre	8c#\	de	8e\	-mo	8a\	de	8A/J	8e\J
.	.	16cc#\JJ	16ee\JJ	.	.	.	.	.	.	.	.	.	.
!	!	!	!	!	!	!	!	!	!	!	!	!LO:TX:t=P:problem=mixed beam	!
!	!	!	!	!	!	!	!	!LO:LB:g=original	!	!	!	!	!
8D/L	.	8dd\L	8ff#\L	8.D/	Spi-	8.d\	Vir-	8f#\	Spi-	8.ff#\	Vir-	8d\L	8f#\L
8D/	.	8dd\	8ff#\	.	.	.	.	8f#\	-ri-	.	.	8d\	8f#\
.	.	.	.	16D/	-ri-	16d\	-gi-	.	.	16ff#\	-gi-	.	.
*	*	*	*custos:ff#	*	*	*	*	*	*	*	*	*	*
8AA/J	.	8cc#\J	8ee\J	8AA/	-tu	8e\	-ne	8a\	-tu	8ee\	-ne	8A\J	8e\J
!	!	!	!LO:LB:g=original	!	!	!	!	!	!	!	!	!	!
8.D/L	.	8dd\L	8ff#\L	8.D/	Spi-	8.d\	Vir-	8a\	Spi-	8.ff#\	Vir-	4d\	4f#\
.	.	8dd\	8ff#\	.	.	.	.	8a\	-ri-	.	.	.	.
16D/K	.	.	.	16D/	-ri-	16d\	-gi-	.	.	16ff#\	-gi-	.	.
8D/J	.	8dd\J	8ee\J	8D/	-tu	8d\	-ne	8a\	-tu	8ff#\	-ne	8d\	8f#\
!	!	!	!	!LO:LB:g=original	!	!	!	!	!	!	!	!	!
=117	=117	=117	=117	=117	=117	=117	=117	=117	=117	=117	=117	=117	=117
4D/	.	16ff#\LL	16aa\LL	1.r	.	1.r	.	1.r	.	1.r	.	4f#\	4a\
.	.	16ff#\	16aa\	.	.	.	.	.	.	.	.	.	.
.	.	16ee\	16gg\	.	.	.	.	.	.	.	.	.	.
*	*	*custos:dd	*	*	*	*	*	*	*	*	*	*	*
.	.	16ee\	16gg\	.	.	.	.	.	.	.	.	.	.
!	!	!LO:LB:g=original	!	!	!	!	!	!	!	!	!	!	!
8r	.	16dd\	16ff#\	.	.	.	.	.	.	.	.	8r	8r
.	.	16dd\JJ	16ff#\JJ	.	.	.	.	.	.	.	.	.	.
4E\	.	16ee\LL	16gg\LL	.	.	.	.	.	.	.	.	4e\	4g\
.	.	16ee\	16gg\	.	.	.	.	.	.	.	.	.	.
.	.	16dd\	16ff#\	.	.	.	.	.	.	.	.	.	.
.	.	16dd\	16ff#\	.	.	.	.	.	.	.	.	.	.
8r	.	16cc#\	16ee\	.	.	.	.	.	.	.	.	8r	8r
.	.	16cc#\JJ	16ee\JJ	.	.	.	.	.	.	.	.	.	.
!	!	!	!	!	!	!	!	!	!	!	!	!	!LO:LB:g=original
4D/	.	16aa\LL	16ff#\LL	.	.	.	.	.	.	.	.	4a\	4f#\
.	.	16aa\	16ff#\	.	.	.	.	.	.	.	.	.	.
.	.	16gg\	16ee\	.	.	.	.	.	.	.	.	.	.
.	.	16gg\	16ee\	.	.	.	.	.	.	.	.	.	.
8r	.	16ff#\	16dd\	.	.	.	.	.	.	.	.	8r	8r
.	.	16ff#\JJ	16dd\JJ	.	.	.	.	.	.	.	.	.	.
4E\	.	16gg\LL	16ee\LL	.	.	.	.	.	.	.	.	4g\	4e\
.	.	16gg\	16ee\	.	.	.	.	.	.	.	.	.	.
.	.	16ff#\	16dd\	.	.	.	.	.	.	.	.	.	.
.	.	16ff#\	16dd\	.	.	.	.	.	.	.	.	.	.
8r	.	16ee\	16cc#\	.	.	.	.	.	.	.	.	8r	8r
.	.	16ee\JJ	16cc#\JJ	.	.	.	.	.	.	.	.	.	.
=118	=118	=118	=118	=118	=118	=118	=118	=118	=118	=118	=118	=118	=118
8D\L	.	16dd\LL	16dd\LL	8D/	Cum	8d\	Cum	8f#\	qui	8ff#\	Cum	8d\L	8f#\L
.	.	16dd\	16ff#\	.	.	.	.	.	.	.	.	.	.
8F#\	6	16dd\	16ff#\	8D/	Pa-	8d\	Pa-	8a\	na-	8ff#\	Pa-	8d\	8f#\
.	.	16dd\	16ff#\	.	.	.	.	.	.	.	.	.	.
8D\J	.	16dd\	16ff#\	8D/	-tre	8d\	-tre	8f#\	-tus	8ff#\	-tre	8d\J	8f#\J
.	.	16dd\JJ	16ff#\JJ	.	.	.	.	.	.	.	.	.	.
8AA/L	.	16cc#\LL	16ee\LL	8AA/	et	8f#\	et	4e\	es	(8ee\	et	8A/L	8e\L
.	.	16cc#\	16ee\	.	.	.	.	.	.	.	.	.	.
8C#/	6	16cc#\	16ee\	8AA/	al-	8e\	al-	.	.	8cc#\)	al-	8A/	8e\
.	.	16cc#\	16ee\	.	.	.	.	.	.	.	.	.	.
8AA/J	.	16cc#\	16ee\	8AA/	-mo	8e\	-mo	8e\	de	8a\	-mo	8A/J	8e\J
.	.	16cc#\JJ	16ee\JJ	.	.	.	.	.	.	.	.	.	.
8.D/L	.	8dd\L	8ff#\L	8.D/	Spi-	8.f#\	Spi-	8.f#\	Vir-	8.dd\	Spi-	8d\L	8f#\L
.	.	8dd\	8ff#\	.	.	.	.	.	.	.	.	8d\	8f#\
16D/K	.	.	.	16D/	-ri-	16f#\	-ri-	16f#\	-gi-	16dd\	-ri-	.	.
!	!	!	!	!	!	!LO:LB:g=original	!	!	!	!	!	!	!
8D/J	.	8dd\J	8ff#\J	8D/	-tu	8f#\	-tu	8f#\	-ne	8dd\	-tu	8d\J	8f#\J
8r	.	8r	4r	8r	.	8r	.	8r	.	8r	.	8r	8r
8r	.	8r	.	8r	.	8r	.	8r	.	8r	.	8r	8r
8AA/	.	8cc#\	8ee\	8AA/	in	8e\	in	8e\	in	8cc#\	in	8A/	8e\
!LO:LB:g=original	!	!	!	!	!	!	!	!	!	!	!	!	!
=119	=119	=119	=119	=119	=119	=119	=119	=119	=119	=119	=119	=119	=119
4D/	.	8ff#\L	8ff#\L	4D/	Sem-	4g\	Sem-	4f#\	Sem-	4dd\	Sem-	8d\L	8f#\L
.	.	8dd\	8aa\	.	.	.	.	.	.	.	.	8d\	8f#\
8D/	.	8ff#\J	8ff#\J	8D/	-pi-	8d\	-pi-	8f#\	-pi-	8ff#\	-pi-	8d\J	8f#\J
4AA/	.	8cc#\L	8ee\L	4AA/	-ter-	4c#\	-ter-	4e\	-ter-	4ee\	-ter-	8A/L	8e\L
.	.	8ee\	8aa\	.	.	.	.	.	.	.	.	8A/	8e\
8AA/	.	8cc#\J	8ee\J	8AA/	-na	8c#\	-na	8e\	-na	8cc#\	-na	8A/J	8e\J
!	!	!	!	!	!	!	!	!	!	!	!	!LO:LB:g=original	!
8D/L	.	8ee\L	8aa\L	8D/L	Sae-	4d\	Sae-	8a\L	Sae-	8dd\L	Sae-	8e\L	8a\L
8BB/	6	8dd\	8bb\	8AA/J	.	.	.	8b\J	.	8cc#\J	.	8e\	8b\
*	*	*custos:cc#	*	*	*	*	*	*	*	*	*	*	*
8E/J	4:3	8b\J	8gg#X\J	8E\	-cu-	8e\	-cu-	8g#X\	-cu-	8b\	-cu-	8e\J	8g#X\J
!	!	!LO:LB:g=original	!	!	!	!	!	!	!	!	!	!	!
4AA/	.	8cc#\L	8aa\L	4AA/	-la	4d\	-la	4a\	-la.	4cc#\	-la	8e\	8a\
.	.	8a\	8ee\	.	.	.	.	.	.	.	.	8r	8r
*	*	*	*custos:a	*	*	*	*	*	*	*	*	*	*
8r	.	8a\J	8cc#\J	8r	.	8r	.	8r	.	8r	.	8r	8r
!	!	!	!LO:LB:g=original	!	!	!	!	!	!	!LO:LB:g=original	!	!	!
=120	=120	=120	=120	=120	=120	=120	=120	=120	=120	=120	=120	=120	=120
8AA/L	.	1.r	16a/LL	1.r	.	1.r	.	1.r	.	1.r	.	1.r	1.r
.	.	.	16a/	.	.	.	.	.	.	.	.	.	.
8AA/	.	.	16a/	.	.	.	.	.	.	.	.	.	.
.	.	.	16a/	.	.	.	.	.	.	.	.	.	.
8AA/J	.	.	16a/	.	.	.	.	.	.	.	.	.	.
.	.	.	16a/JJ	.	.	.	.	.	.	.	.	.	.
8AA/L	.	.	16a/LL	.	.	.	.	.	.	.	.	.	.
.	.	.	16a/	.	.	.	.	.	.	.	.	.	.
8AA/	.	.	16a/	.	.	.	.	.	.	.	.	.	.
.	.	.	16a/	.	.	.	.	.	.	.	.	.	.
8AA/J	.	.	16a/	.	.	.	.	.	.	.	.	.	.
.	.	.	16a/JJ	.	.	.	.	.	.	.	.	.	.
8AA/L	.	.	16cc#\LL	.	.	.	.	.	.	.	.	.	.
.	.	.	16a\	.	.	.	.	.	.	.	.	.	.
8AA/	.	.	16a\	.	.	.	.	.	.	.	.	.	.
.	.	.	16a\	.	.	.	.	.	.	.	.	.	.
8AA/J	.	.	16a\	.	.	.	.	.	.	.	.	.	.
.	.	.	16a\JJ	.	.	.	.	.	.	.	.	.	.
8AA/L	.	.	16cc#\LL	.	.	.	.	.	.	.	.	.	.
.	.	.	16a\	.	.	.	.	.	.	.	.	.	.
8AA/	.	.	16a\	.	.	.	.	.	.	.	.	.	.
.	.	.	16a\	.	.	.	.	.	.	.	.	.	.
8AA/J	.	.	16a\	.	.	.	.	.	.	.	.	.	.
.	.	.	16a\JJ	.	.	.	.	.	.	.	.	.	.
=121	=121	=121	=121	=121	=121	=121	=121	=121	=121	=121	=121	=121	=121
4AA/	.	16a/LL	16cc#\LL	1.r	.	1.r	.	1.r	.	1.r	.	1.r	1.r
.	.	16a/	16cc#\	.	.	.	.	.	.	.	.	.	.
.	.	16a/	16cc#\	.	.	.	.	.	.	.	.	.	.
.	.	16a/	16cc#\	.	.	.	.	.	.	.	.	.	.
8r	.	16a/	16cc#\	.	.	.	.	.	.	.	.	.	.
.	.	16a/JJ	16cc#\JJ	.	.	.	.	.	.	.	.	.	.
4AA/	.	16a/LL	16cc#\LL	.	.	.	.	.	.	.	.	.	.
.	.	16a/	16cc#\	.	.	.	.	.	.	.	.	.	.
.	.	16a/	16cc#\	.	.	.	.	.	.	.	.	.	.
.	.	16a/	16cc#\	.	.	.	.	.	.	.	.	.	.
8r	.	16a/	16cc#\	.	.	.	.	.	.	.	.	.	.
.	.	16a/JJ	16cc#\JJ	.	.	.	.	.	.	.	.	.	.
4AA/	.	16cc#\LL	16ee\LL	.	.	.	.	.	.	.	.	.	.
.	.	16a\	16cc#\	.	.	.	.	.	.	.	.	.	.
.	.	16a\	16cc#\	.	.	.	.	.	.	.	.	.	.
.	.	16a\	16cc#\	.	.	.	.	.	.	.	.	.	.
8r	.	16a\	16cc#\	.	.	.	.	.	.	.	.	.	.
.	.	16a\JJ	16cc#\JJ	.	.	.	.	.	.	.	.	.	.
4AA/	.	16cc#\LL	16ee\LL	.	.	.	.	.	.	.	.	.	.
.	.	16a\	16cc#\	.	.	.	.	.	.	.	.	.	.
.	.	16a\	16cc#\	.	.	.	.	.	.	.	.	.	.
.	.	16a\	16cc#\	.	.	.	.	.	.	.	.	.	.
8r	.	16a\	16cc#\	.	.	.	.	.	.	.	.	.	.
.	.	16a\JJ	16cc#\JJ	.	.	.	.	.	.	.	.	.	.
!	!	!	!	!	!	!	!	!LO:LB:g=original	!	!	!	!	!
=122	=122	=122	=122	=122	=122	=122	=122	=122	=122	=122	=122	=122	=122
8AA/L	.	16cc#\LL	16aa\LL	8A\	Je-	8A/	Je-	8a\	Je-	8ee\	Je-	8A/L	8A/L
.	.	16cc#\	16aa\	.	.	.	.	.	.	.	.	.	.
8C#/	6	16cc#\	16aa\	8A\	-su	8A/	-su	8a\	-su	8ee\	-su	8A/	8A/
.	.	16cc#\	16aa\	.	.	.	.	.	.	.	.	.	.
8AA/J	.	16cc#\	16aa\	8A\	Ti-	8A/	Ti-	8a\	Ti-	8ee\	Ti-	8A/J	8A/J
.	.	16cc#\JJ	16aa\JJ	.	.	.	.	.	.	.	.	.	.
8E\L	.	16b\LL	16gg#X\LL	4E\	-bi	4A/	-bi	4g#X\	-bi	8ee\	-bi	8A/L	8A/L
.	.	16b\	16gg#\	.	.	.	.	.	.	.	.	.	.
8G#X\	6	16b\	16gg#\	.	.	.	.	.	.	4ee\	sit	8A/	8A/
.	.	16b\	16gg#\	.	.	.	.	.	.	.	.	.	.
8E\J	.	16b\	16gg#\	8E\	sit	8A/	sit	8g#\	sit	.	.	8A/J	8A/J
.	.	16b\JJ	16gg#\JJ	.	.	.	.	.	.	.	.	.	.
!LO:N:vis=8	!	!	!	!	!	!	!	!	!	!	!	!	!
!	!	!	!LO:LB:g=original	!LO:LB:g=original	!	!	!	!	!	!	!	!	!
16E\LL	.	8b\L	16gg#\LL	8E\	glo-	8A/	glo-	8g#\	glo-	8ee\	glo-	8A/L	8A/L
16F#\	.	.	16gg#\	.	.	.	.	.	.	.	.	.	.
16G#\	6	8b\	16gg#\	8E\	-ri-	8A/	-ri-	8g#\	-ri-	8ee\	-ri-	8A/	8A/
16F#\	.	.	16gg#\	.	.	.	.	.	.	.	.	.	.
16G#\	6	8b\J	16gg#\	8E\	-a	8A/	-a	8g#\	-a	8ee\	-a	8A/J	8A/J
16E\JJ	.	.	16gg#\JJ	.	.	.	.	.	.	.	.	.	.
!LO:LB:g=original	!	!	!	!	!	!	!	!	!	!	!	!	!
!LO:TX:t=P:problem=mixed beam	!	!	!	!	!	!	!	!	!	!	!	!	!
8.A\L	.	8cc#\L	8aa\L	8.AA/	glo-	8.A/	glo-	8a\	glo-	8.ee\	glo-	8A/L	8A/L
.	.	8cc#\	8aa\	.	.	.	.	8a\	-ri-	.	.	8A/	8A/
16AA\K	.	.	.	16AA/	-ri-	16A/	-ri-	.	.	16ee\	-ri-	.	.
8AA\J	.	8cc#\J	8aa\J	8AA/	-a	8A/	-a	8a\	-a	8ee\	-a	8A/J	8A/J
!	!	!LO:LB:g=original	!	!	!	!	!	!	!	!	!	!	!
=123	=123	=123	=123	=123	=123	=123	=123	=123	=123	=123	=123	=123	=123
8AA/L	.	1.r	16a/LL	1.r	.	1.r	.	1.r	.	1.r	.	1.r	1.r
.	.	.	16a/	.	.	.	.	.	.	.	.	.	.
8AA/	.	.	16a/	.	.	.	.	.	.	.	.	.	.
.	.	.	16a/	.	.	.	.	.	.	.	.	.	.
8AA/J	.	.	16a/	.	.	.	.	.	.	.	.	.	.
.	.	.	16a/JJ	.	.	.	.	.	.	.	.	.	.
8AA/L	.	.	16a/LL	.	.	.	.	.	.	.	.	.	.
.	.	.	16a/	.	.	.	.	.	.	.	.	.	.
8AA/	.	.	16a/	.	.	.	.	.	.	.	.	.	.
.	.	.	16a/	.	.	.	.	.	.	.	.	.	.
8AA/J	.	.	16a/	.	.	.	.	.	.	.	.	.	.
.	.	.	16a/JJ	.	.	.	.	.	.	.	.	.	.
8AA/L	.	.	16cc#/LL	.	.	.	.	.	.	.	.	.	.
.	.	.	16a/	.	.	.	.	.	.	.	.	.	.
8AA/	.	.	16a/	.	.	.	.	.	.	.	.	.	.
.	.	.	16a/	.	.	.	.	.	.	.	.	.	.
8AA/J	.	.	16a/	.	.	.	.	.	.	.	.	.	.
.	.	.	16a/JJ	.	.	.	.	.	.	.	.	.	.
8AA/L	.	.	16cc#/LL	.	.	.	.	.	.	.	.	.	.
.	.	.	16a/	.	.	.	.	.	.	.	.	.	.
8AA/	.	.	16a/	.	.	.	.	.	.	.	.	.	.
.	.	.	16a/	.	.	.	.	.	.	.	.	.	.
8AA/J	.	.	16a/	.	.	.	.	.	.	.	.	.	.
.	.	.	16a/JJ	.	.	.	.	.	.	.	.	.	.
=124	=124	=124	=124	=124	=124	=124	=124	=124	=124	=124	=124	=124	=124
4AA/	.	16a/LL	16cc#\LL	1.r	.	1.r	.	1.r	.	1.r	.	1.r	1.r
.	.	16a/	16cc#\	.	.	.	.	.	.	.	.	.	.
.	.	16a/	16cc#\	.	.	.	.	.	.	.	.	.	.
.	.	16a/	16cc#\	.	.	.	.	.	.	.	.	.	.
8r	.	16a/	16cc#\	.	.	.	.	.	.	.	.	.	.
.	.	16a/JJ	16cc#\JJ	.	.	.	.	.	.	.	.	.	.
4AA/	.	16a/LL	16cc#\LL	.	.	.	.	.	.	.	.	.	.
.	.	16a/	16cc#\	.	.	.	.	.	.	.	.	.	.
.	.	16a/	16cc#\	.	.	.	.	.	.	.	.	.	.
.	.	16a/	16cc#\	.	.	.	.	.	.	.	.	.	.
8r	.	16a/	16cc#\	.	.	.	.	.	.	.	.	.	.
.	.	16a/JJ	16cc#\JJ	.	.	.	.	.	.	.	.	.	.
4AA/	.	16cc#\LL	16ee\LL	.	.	.	.	.	.	.	.	.	.
.	.	16a\	16cc#\	.	.	.	.	.	.	.	.	.	.
.	.	16a\	16cc#\	.	.	.	.	.	.	.	.	.	.
.	.	16a\	16cc#\	.	.	.	.	.	.	.	.	.	.
8r	.	16a\	16cc#\	.	.	.	.	.	.	.	.	.	.
.	.	16a\JJ	16cc#\JJ	.	.	.	.	.	.	.	.	.	.
4AA/	.	16cc#\LL	16ee\LL	.	.	.	.	.	.	.	.	.	.
.	.	16a\	16cc#\	.	.	.	.	.	.	.	.	.	.
.	.	16a\	16cc#\	.	.	.	.	.	.	.	.	.	.
.	.	16a\	16cc#\	.	.	.	.	.	.	.	.	.	.
8r	.	16a\	16cc#\	.	.	.	.	.	.	.	.	.	.
*	*	*	*custos:aa	*	*	*	*	*	*	*	*	*	*
.	.	16a\JJ	16cc#\JJ	.	.	.	.	.	.	.	.	.	.
!	!	!	!LO:LB:g=original	!	!	!	!	!	!	!	!	!	!
=125	=125	=125	=125	=125	=125	=125	=125	=125	=125	=125	=125	=125	=125
8AA/L	.	16cc#\LL	16aa\LL	8A\	Qui	8A/	Je-	8a\	qui	8ee\	Cum	8A/L	8A/L
.	.	16cc#\	16aa\	.	.	.	.	.	.	.	.	.	.
8C#/	6	16cc#\	16aa\	8A\	na-	8A/	-su	8a\	na-	8cc#\	Pa-	8A/	8A/
.	.	16cc#\	16aa\	.	.	.	.	.	.	.	.	.	.
8AA/J	.	16cc#\	16aa\	8A\	-tus	8A/	Ti-	8a\	-tus	8ee\	-tre	8A/J	8A/J
.	.	16cc#\JJ	16aa\JJ	.	.	.	.	.	.	.	.	.	.
8E\L	.	16b\LL	16gg#X\LL	4E\	es	4A/	-bi	4g#X\	eſt	8ee\	et	8A/L	8A/L
.	.	16b\	16gg#\	.	.	.	.	.	.	.	.	.	.
8G#X\	6	16b\	16gg#\	.	.	.	.	.	.	8ee\	al-	8A/	8A/
.	.	16b\	16gg#\	.	.	.	.	.	.	.	.	.	.
8E\J	.	16b\	16gg#\	8E\	de	8A/	sit	8g#\	de	8ee\	-mo	8A/J	8A/J
.	.	16b\JJ	16gg#\JJ	.	.	.	.	.	.	.	.	.	.
!	!	!	!	!	!	!LO:LB:g=original	!	!	!	!	!	!	!
8E\L	.	16b\LL	16gg#\LL	8E\	Vir-	8.A/	glo-	8g#\	Vir-	8ee\	Spi-	8A/L	8A/L
.	.	16b\	16gg#\	.	.	.	.	.	.	.	.	.	.
8G#X\	6	16b\	16gg#\	8E\	-gi-	.	.	8g#\	-gi-	8ee\	-ri-	8A/	8A/
.	.	16b\	16gg#\	.	.	16A/	-ri-	.	.	.	.	.	.
8E\J	.	16b\	16gg#\	8E\	-ne	8A/	-a	8g#\	-ne	8ee\	-tu	8A/J	8A/J
.	.	16b\JJ	16gg#\JJ	.	.	.	.	.	.	.	.	.	.
!LO:TX:t=P:problem=mixed beam	!	!	!	!	!	!	!	!	!	!	!	!	!LO:LB:g=original
8.A\L	.	8cc#\L	8aa\L	8.A\	Vir-	8.A/	glo-	8a\	Vir-	8ee\	Spi-	8A/L	8A/L
.	.	8cc#\	8aa\	.	.	.	.	8a\	-gi-	8ee\	-ri-	8A/	8A/
16AA\K	.	.	.	16A\	-gi-	16A/	-ri-	.	.	.	.	.	.
*	*	*custos:cc#	*	*	*	*	*	*	*	*	*	*	*
8AA\J	.	8cc#\J	8aa\J	8A\	-ne	8A/	-a	8a\	-ne	8ee\	-tu	8A/J	8A/J
!	!	!LO:LB:g=original	!	!	!	!	!	!	!	!LO:LB:g=original	!	!	!
=126	=126	=126	=126	=126	=126	=126	=126	=126	=126	=126	=126	=126	=126
8AA/L	.	16cc#\LL	16aa\LL	8A\	Cum	8e\	Cum	8a\	Cum	8cc#\	Cum	8A/L	8A/L
.	.	16cc#\	16aa\	.	.	.	.	.	.	.	.	.	.
8C#/	6	16cc#\	16aa\	8A\	Pa-	8e\	Pa-	8a\	Pa-	8cc#\	Pa-	8A/	8A/
.	.	16cc#\	16aa\	.	.	.	.	.	.	.	.	.	.
8AA/J	.	16cc#\	16aa\	8A\	-tre	8e\	-tre	8a\	-tre	8cc#\	-tre	8A/J	8A/J
.	.	16cc#\JJ	16aa\JJ	.	.	.	.	.	.	.	.	.	.
8E\L	.	16b\LL	16gg#X\LL	8AA/	et	8e\	et	8g#X\	et	8b\	et	8A/L	8A/L
.	.	16b\	16gg#\	.	.	.	.	.	.	.	.	.	.
8G#X\	.	16b\	16gg#\	8C#/	al-	8e\	al-	8g#\	al-	8b\	al-	8A/	8A/
.	.	16b\	16gg#\	.	.	.	.	.	.	.	.	.	.
8E\J	.	16b\	16gg#\	8G#X\	-mo	8e\	-mo	8g#\	-mo	8b\	-mo	8A/J	8A/J
.	.	16b\JJ	16gg#\JJ	.	.	.	.	.	.	.	.	.	.
!LO:LB:g=original	!	!	!	!	!	!	!	!LO:LB:g=original	!	!	!	!	!
8AA/L	.	16cc#\LL	16aa\LL	8.A\	Spi-	8.e\	Spi-	8.a\	Spi-	8.cc#\	Spi-	8A/L	8A/L
.	.	16cc#\	16aa\	.	.	.	.	.	.	.	.	.	.
8AA/	.	16cc#\	16aa\	.	.	.	.	.	.	.	.	8A/	8A/
.	.	16cc#\	16aa\	16A\	-ri-	16e\	-ri-	16a\	-ri-	16cc#\	-ri-	.	.
8AA/J	.	16cc#\	16aa\	8A\	-tu	8e\	-tu	8a\	-tu	8cc#\	-tu	8A/J	8A/J
.	.	16cc#\JJ	16aa\JJ	.	.	.	.	.	.	.	.	.	.
!	!	!	!	!LO:LB:g=original	!	!	!	!	!	!	!	!	!
8r	.	8r	8r	8r	.	8r	.	8r	.	8r	.	8r	8r
8r	.	8r	8r	8r	.	8r	.	8r	.	8r	.	8r	8r
8E\	.	8cc#\	8ee\	8E\	-in	8c#\	-in	8g#X\	-in	8b\	-in	8A/	8A/
=127	=127	=127	=127	=127	=127	=127	=127	=127	=127	=127	=127	=127	=127
4AA/	.	4cc#\	4ee\	4A\	Sem-	4A\	Sem-	4a\	Sem-	4cc#\	Sem-	4A/	4A/
8r	.	8r	8r	8r	.	8B\	-pi-	8r	.	8dd\	-pi-	8r	8r
4AA/	.	4cc#\	4ee\	4A\	-pi-	4c#\	-ter-	4a\	-pi-	4ee\	-ter-	4A/	4A/
8r	.	8r	8r	8r	.	8d\	-na	8r	.	8ff#\	-na	8r	8r
4AA/	.	4cc#\	4ee\	4A\	-ter-	4c#\	Sae-	4a\	-ter-	4ee\	Sae-	4A/	4A/
8r	.	8r	8r	8r	.	8B\	-cu-	8r	.	8dd\	-cu-	8r	8r
4AA/	.	4cc#\	4ee\	4A\	-na	4A/	-la	4a\	-na	4cc#\	-la	4A/	4A/
8r	.	8r	8r	8r	.	8G/	in	8r	.	8b\	in	8r	8r
!	!	!	!	!	!	!	!	!	!	!	!	!LO:LB:g=original	!
=128	=128	=128	=128	=128	=128	=128	=128	=128	=128	=128	=128	=128	=128
4AA/	.	4cc#\	4ee\	4A\	Sae-	4A\	Sem-	4a\	Sae-	4cc#\	Sem-	4A/	4A/
8r	.	8r	8r	8r	.	8B\	-pi-	8r	.	8dd\	-pi-	8r	8r
!	!	!	!LO:LB:g=original	!	!	!	!	!	!	!	!	!	!
4AA/	.	4cc#\	4ee\	4A\	-cu-	4c#\	-ter-	4a\	-cu-	4ee\	-ter-	4A/	4A/
8r	.	8r	8r	8r	.	8d\	-na	8r	.	8ff#\	-na	8r	8r
!	!	!	!	!	!	!LO:LB:g=original	!	!	!	!	!	!	!
4AA/	.	4cc#\	4ee\	4A\	-la	4c#\	Sae-	4a\	-la	4ee\	Sae-	4A/	4A/
8r	.	8r	8r	8r	.	8B\	-cu-	8r	.	8dd\	-cu-	8r	8r
4AA/	.	4cc#\	4ee\	4A\	in	4A/	-la	4a\	in	4cc#\	-la	4A/	4A/
8r	.	8r	8r	8r	.	8G/	in	8r	.	8b\	in	8r	8r
!	!	!	!	!	!	!	!	!	!	!LO:LB:g=original	!	!	!
=129	=129	=129	=129	=129	=129	=129	=129	=129	=129	=129	=129	=129	=129
8AA/L	.	16cc#\LL	16ee\LL	4A\	Sem-	4A/	Sem-	4a\	Sem-	4cc#\	Sem-	8A/L	8A/L
.	.	16cc#\	16ee\	.	.	.	.	.	.	.	.	.	.
8C#/	6	16cc#\	16ee\	.	.	.	.	.	.	.	.	8A/	8A/
.	.	16cc#\	16ee\	.	.	.	.	.	.	.	.	.	.
8AA/J	.	16cc#\	16ee\	8A\	-pi-	8A/	-pi-	8a\	-pi-	8cc#\	-pi-	8A/J	8A/J
.	.	16cc#\JJ	16ee\JJ	.	.	.	.	.	.	.	.	.	.
8E\L	.	16b\LL	16gg#X\LL	4E\	-ter-	4G/	-ter-	4g#X\	-ter-	4b\	-ter-	8A/L	8A/L
.	.	16b\	16gg#\	.	.	.	.	.	.	.	.	.	.
8G#X\	6	16b\	16gg#\	.	.	.	.	.	.	.	.	8A/	8A/
.	.	16b\	16gg#\	.	.	.	.	.	.	.	.	.	.
8E\J	.	16b\	16gg#\	8E\	-na	8G/	-na	8g#\	-na	8b\	-na	8A/J	8A/J
*	*	*custos:cc#	*	*	*	*	*	*	*	*	*	*	*
.	.	16b\JJ	16gg#\JJ	.	.	.	.	.	.	.	.	.	.
!LO:TX:t=P:problem=mixed beam	!	!	!	!	!	!	!	!	!	!	!	!	!
!	!	!LO:LB:g=original	!	!	!	!	!	!	!	!	!	!	!
8A\L	.	8cc#\L	8aa\L	8.A\	Sae-	8A/	Sae-	8a\	Sae-	8cc#\	Sae-	4A/	4A/
8AA\	.	8cc#\	8aa\	.	.	8A/	-cu-	8a\	-cu-	8cc#\	-cu-	.	.
.	.	.	.	16A\	-cu-	.	.	.	.	.	.	.	.
8AA\J	.	8cc#\J	8aa\J	8A\	-la	8A/	-la	8a\	-la	8cc#\	-la	8A/	8A/
8r	.	4r	4r	8r	.	8r	.	8r	.	8r	.	8r	8r
8r	.	.	.	8r	.	8r	.	8r	.	8r	.	8r	8r
!	!	!	!	!LO:LB:g=original	!	!	!	!	!	!	!	!	!
8AA/	.	8cc#\	8ee\	8A\	in	8c#\	in	8e\	in	8ee\	in	8A/	8e\
=130	=130	=130	=130	=130	=130	=130	=130	=130	=130	=130	=130	=130	=130
8D\L	.	16dd\LL	16ff#\LL	4d\	Sem-	4d\	Sem-	4f#\	Sem-	4ff#\	Sem-	8d\L	8f#\L
.	.	16ff#\	16aa\	.	.	.	.	.	.	.	.	.	.
8F#\	6	16ff#\	16aa\	.	.	.	.	.	.	.	.	8d\	8f#\
.	.	16ff#\	16aa\	.	.	.	.	.	.	.	.	.	.
8D\J	.	16ff#\	16aa\	8d\	-pi-	8d\	-pi-	8f#\	-pi-	8ff#\	-pi-	8d\J	8f#\J
.	.	16ff#\JJ	16aa\JJ	.	.	.	.	.	.	.	.	.	.
8AA/L	.	16cc#\LL	16ff#\LL	4A\	-ter-	4e\	-ter-	4e\	-ter-	4a\	-ter-	8A/L	8e\L
.	.	16cc#\	16aa\	.	.	.	.	.	.	.	.	.	.
8C#/	6	16cc#\	16ee\	.	.	.	.	.	.	.	.	8A/	8e\
.	.	16cc#\	16ee\	.	.	.	.	.	.	.	.	.	.
8AA/J	.	16cc#\	16ee\	8A\	-na	8e\	-na	8e\	-na	8a\	-na	8A/J	8e\J
.	.	16cc#\JJ	16ee\JJ	.	.	.	.	.	.	.	.	.	.
!LO:LB:g=original	!	!	!	!	!	!	!	!LO:LB:g=original	!	!	!	!	!
8D/L	.	8dd\L	8ff#\L	8.d\	Sae-	8.f#\	Sae-	8f#\	Sae-	8a\	sae-	8d\L	8f#\L
8D/	.	8dd\	8ff#\	.	.	.	.	8f#\	-cu-	8a\	-cu-	8d\	8f#\
.	.	.	.	16d\	-cu-	16f#\	-cu-	.	.	.	.	.	.
8D/J	.	8dd\J	8ff#\J	8d\	-la	8f#\	-la	8f#\	-la	8a\	-la	8d\J	8f#\J
!	!	!	!	!	!	!	!	!	!	!	!	!	!LO:LB:g=original
8r	.	4r	8r	8r	.	8r	.	8r	.	8r	.	8r	8r
8r	.	.	8r	8r	.	8r	.	8r	.	8r	.	8r	8r
*	*	*	*	*	*	*	*	*	*ij	*	*ij	*	*
8AA/	.	8cc#\	8ee\	8AA/	in	8e\	in	8e\	in	8a\	in	8A/	8e\
=131	=131	=131	=131	=131	=131	=131	=131	=131	=131	=131	=131	=131	=131
8D\L	.	8dd\L	8ff#\L	4D/	Sem-	4f#\	Sem-	4f#\	Sem-	4a\	Sem-	8d\L	8f#\L
8F#\	.	8ff#\	8aa\	.	.	.	.	.	.	.	.	8d\	8f#\
8D\J	.	8dd\J	8ff#\	8D/	-pi-	8f#\	-pi-	8f#\	-pi-	8a\	-pi-	8d\J	8f#\J
8AA/L	.	8cc#\L	8ee\	8AA/	-ter-	4e\	-ter-	4e\	-ter-	4a\	-ter-	8A/L	8e\L
8C#/	.	8ee\	8aa\	4AA/	-na	.	.	.	.	.	.	8A/	8e\
8AA/J	.	8cc#\J	8ee\J	.	.	8e\	-na	8e\	-na	8a\	-na	8A/J	8e\J
8D/L	.	8dd\L	8ff#\L	8.D/	Sae-	8.f#\	Sae-	8f#\	Sae-	8a\	Sae-	8d\L	8f#\L
8D/	.	8dd\	8ff#\	.	.	.	.	8f#\	-cu-	8a\	-cu-	8d\	8f#\
.	.	.	.	16D/	-cu-	16f#\	-cu-	.	.	.	.	.	.
*	*	*	*custos:ff#	*	*	*	*	*	*	*	*	*	*
!	!	!	!	!	!	!LO:LB:g=original	!	!	!	!	!	!	!
8D/J	.	8dd\J	8ff#\J	8D/	-la	8f#\	-la	8f#\	-la	8a\	-la	8d\J	8f#\J
!	!	!LO:TX:t=P:problem=mixed beam	!LO:TX:t=P:problem=mixed beam	!	!	!	!	!	!	!	!	!LO:TX:t=P:problem=mixed beam	!LO:TX:t=P:problem=mixed beam
*	*	*	*	*	*	*	*	*	*Xij	*	*Xij	*	*
!	!	!	!LO:LB:g=original	!	!	!	!	!	!	!	!	!	!
8D\L	.	8dd\L	8ff#\L	8r	.	8r	.	8r	.	8r	.	8d\L	8f#\L
8F#\	.	8d\	8f#\	8r	.	8r	.	8r	.	8r	.	8D\	8D\
!	!	!	!	!LO:N:vis=4	!	!LO:N:vis=4	!	!LO:N:vis=4	!	!	!	!	!
8D\J	.	8d\J	8f#\J	8r	.	8r	.	8r	.	8r	.	8D\J	8D\J
!	!	!	!	!	!	!	!	!	!	!LO:LB:g=original	!	!	!
=132	=132	=132	=132	=132	=132	=132	=132	=132	=132	=132	=132	=132	=132
8D/L	.	1.r	16d/LL	1.r	.	1.r	.	1.r	.	1.r	.	8D/	8D/L
.	.	.	16d/	.	.	.	.	.	.	.	.	.	.
8D/	.	.	16d/	.	.	.	.	.	.	.	.	8r	8D/
.	.	.	16d/	.	.	.	.	.	.	.	.	.	.
8D/J	.	.	16d/	.	.	.	.	.	.	.	.	8r	8D/J
.	.	.	16d/JJ	.	.	.	.	.	.	.	.	.	.
8D/L	.	.	16d/LL	.	.	.	.	.	.	.	.	4r	8D/L
.	.	.	16d/	.	.	.	.	.	.	.	.	.	.
8D/	.	.	16d/	.	.	.	.	.	.	.	.	.	8D/
.	.	.	16d/	.	.	.	.	.	.	.	.	.	.
!	!	!	!	!	!	!	!	!	!	!	!	!LO:N:vis=2	!
8D/J	.	.	16d/	.	.	.	.	.	.	.	.	2..r	8D/J
.	.	.	16d/JJ	.	.	.	.	.	.	.	.	.	.
8D/L	.	.	16f#/LL	.	.	.	.	.	.	.	.	.	8D/L
.	.	.	16d/	.	.	.	.	.	.	.	.	.	.
8D/	.	.	16d/	.	.	.	.	.	.	.	.	.	8D/
.	.	.	16d/	.	.	.	.	.	.	.	.	.	.
8D/J	.	.	16d/	.	.	.	.	.	.	.	.	.	8D/J
.	.	.	16d/JJ	.	.	.	.	.	.	.	.	.	.
8D/L	.	.	16f#/LL	.	.	.	.	.	.	.	.	.	8D/L
.	.	.	16d/	.	.	.	.	.	.	.	.	.	.
8D/	.	.	16d/	.	.	.	.	.	.	.	.	.	8D/
.	.	.	16d/	.	.	.	.	.	.	.	.	.	.
8D/J	.	.	16d/	.	.	.	.	.	.	.	.	.	8D/J
.	.	.	16d/JJ	.	.	.	.	.	.	.	.	.	.
!	!	!	!	!	!	!	!	!	!	!	!	!LO:LB:g=original	!
=133	=133	=133	=133	=133	=133	=133	=133	=133	=133	=133	=133	=133	=133
8D/L	.	16d/LL	16f#/LL	1.r	.	1.r	.	1.r	.	1.r	.	8D/L	8F#/L
.	.	16d/	16f#/	.	.	.	.	.	.	.	.	.	.
8D/	.	16d/	16f#/	.	.	.	.	.	.	.	.	8D/	8F#/
*	*	*custos:d	*	*	*	*	*	*	*	*	*	*	*
.	.	16d/JJ	16f#/	.	.	.	.	.	.	.	.	.	.
!	!	!LO:LB:g=original	!	!	!	!	!	!	!	!	!	!	!
8D/J	.	16d/LL	16f#/	.	.	.	.	.	.	.	.	8D/J	8F#/J
.	.	16d/JJ	16f#/JJ	.	.	.	.	.	.	.	.	.	.
8D/L	.	16d/LL	16f#/LL	.	.	.	.	.	.	.	.	8D/L	8F#/L
.	.	16d/	16f#/	.	.	.	.	.	.	.	.	.	.
8D/	.	16d/	16f#/	.	.	.	.	.	.	.	.	8D/	8F#/
.	.	16d/	16f#/	.	.	.	.	.	.	.	.	.	.
8D/J	.	16d/	16f#/	.	.	.	.	.	.	.	.	8D/J	8F#/J
.	.	16d/JJ	16f#/JJ	.	.	.	.	.	.	.	.	.	.
8D/L	.	16f#/LL	16a/LL	.	.	.	.	.	.	.	.	8D/L	8F#/L
.	.	16d/	16f#/	.	.	.	.	.	.	.	.	.	.
8D/	.	16d/	16f#/	.	.	.	.	.	.	.	.	8D/	8F#/
.	.	16d/	16f#/	.	.	.	.	.	.	.	.	.	.
8D/J	.	16d/	16f#/	.	.	.	.	.	.	.	.	8D/J	8F#/J
.	.	16d/JJ	16f#/JJ	.	.	.	.	.	.	.	.	.	.
8D/L	.	16f#/LL	16a/LL	.	.	.	.	.	.	.	.	8D/L	8F#/L
.	.	16d/	16f#/	.	.	.	.	.	.	.	.	.	.
8D/	.	16d/	16f#/	.	.	.	.	.	.	.	.	8D/	8F#/
.	.	16d/	16f#/	.	.	.	.	.	.	.	.	.	.
8D/J	.	16d/	16f#/	.	.	.	.	.	.	.	.	8D/J	8F#/J
.	.	16d/JJ	16f#/JJ	.	.	.	.	.	.	.	.	.	.
!LO:LB:g=original	!	!	!	!	!	!	!	!	!	!	!	!	!
=134	=134	=134	=134	=134	=134	=134	=134	=134	=134	=134	=134	=134	=134
8D\L	.	16ff#\LL	16ddd\LL	8D/	Je-	8d\	Je-	8a\	Je-	8ff#\	Je-	8d\L	8f#\L
.	.	16ff#\	16ddd\	.	.	.	.	.	.	.	.	.	.
8F#\	6	16ff#\	16ddd\	8D/	-su	8d\	-su	8a\	-su	8ff#\	-su	8d\	8f#\
.	.	16ff#\	16ddd\	.	.	.	.	.	.	.	.	.	.
8D\J	.	16ff#\	16ddd\	8D/	Ti-	8d\	Ti-	8a\	Ti-	8ff#\	Ti-	8d\J	8f#\J
*	*	*	*custos:ccc#	*	*	*	*	*	*	*	*	*	*
.	.	16ff#\JJ	16ddd\JJ	.	.	.	.	.	.	.	.	.	.
!	!	!	!LO:LB:g=original	!	!	!	!	!	!	!	!	!	!
8AA/L	.	16ee\LL	16ccc#\LL	4AA/	-bi	4c#\	-bi	4a\	-bi	4ee\	-bi	8A/L	8e\L
.	.	16ee\	16ccc#\	.	.	.	.	.	.	.	.	.	.
8C#/	.	16ee\	16ccc#\	.	.	.	.	.	.	.	.	8A/	8e\
.	.	16ee\	16ccc#\	.	.	.	.	.	.	.	.	.	.
8AA/J	.	16ee\	16ccc#\	8AA/	sit	8c#\	sit	8a\	sit	8ee\	sit	8A/J	8e\J
.	.	16ee\JJ	16ccc#\JJ	.	.	.	.	.	.	.	.	.	.
8AA/L	.	16ee\LL	16ccc#\LL	8AA/	glo-	8c#\	glo-	8a\	glo-	8ee\	glo-	8A/L	8e\L
.	.	16ee\	16ccc#\	.	.	.	.	.	.	.	.	.	.
8C#/	6	16ee\	16ccc#\	8AA/	-ri-	8c#\	-ri-	8a\	-ri-	8ee\	-ri-	8A/	8e\
.	.	16ee\	16ccc#\	.	.	.	.	.	.	.	.	.	.
8AA/J	.	16ee\	16ccc#\	8AA/	-a	8c#\	-a	8a\	-a	8ee\	-a	8A/J	8e\J
.	.	16ee\JJ	16ccc#\JJ	.	.	.	.	.	.	.	.	.	.
4D/	.	8ff#\L	8ddd\L	8.D/	glo-	8.d\	glo-	8a\	glo-	8.ff#\	glo-	4d\	4f#\
.	.	8ff#\	8ddd\	.	.	.	.	8a\	-ri-	.	.	.	.
.	.	.	.	16D/	-ri-	16d\	-ri-	.	.	16ff#\	-ri-	.	.
8D/	.	8ff#\J	8ddd\J	8D/	-a	8d\	-a	8a\	-a	8ff#\	-a	8d\	8f#\
=135	=135	=135	=135	=135	=135	=135	=135	=135	=135	=135	=135	=135	=135
!	!	!	!	!LO:N:vis=2	!	!LO:N:vis=2	!	!LO:N:vis=2	!	!LO:N:vis=2	!	!	!
4D/	.	16ff#\LL	16aa\LL	2..r	.	2.r	.	2..r	.	2..r	.	4f#\	4a\
.	.	16ff#\	16aa\	.	.	.	.	.	.	.	.	.	.
.	.	16ee\	16gg\	.	.	.	.	.	.	.	.	.	.
.	.	16ee\	16gg\	.	.	.	.	.	.	.	.	.	.
8r	.	16dd\	16ff#\	.	.	.	.	.	.	.	.	8r	8r
*	*	*custos:ee	*	*	*	*	*	*	*	*	*	*	*
.	.	16dd\JJ	16ff#\JJ	.	.	.	.	.	.	.	.	.	.
!	!	!LO:LB:g=original	!	!	!	!	!	!	!	!	!	!	!
4E\	.	16ee\LL	16gg\LL	.	.	.	.	.	.	.	.	4e\	4g\
.	.	16ee\	16gg\	.	.	.	.	.	.	.	.	.	.
.	.	16dd\	16ff#\	.	.	.	.	.	.	.	.	.	.
.	.	16dd\	16ff#\	.	.	.	.	.	.	.	.	.	.
8r	.	16cc#\	16ee\	.	.	.	.	.	.	.	.	8r	8r
.	.	16cc#\JJ	16ee\JJ	.	.	.	.	.	.	.	.	.	.
!	!	!	!	!	!	!	!	!	!	!	!	!	!LO:LB:g=original
4D/	.	16aa\LL	16ff#\LL	.	.	4r	.	.	.	.	.	4a\	4f#\
.	.	16aa\	16ff#\	.	.	.	.	.	.	.	.	.	.
.	.	16gg\	16ee\	4r	.	.	.	4r	.	4r	.	.	.
.	.	16gg\	16ee\	.	.	.	.	.	.	.	.	.	.
8r	.	16ff#\	16dd\	.	.	8r	.	.	.	.	.	8r	8r
.	.	16ff#\JJ	16dd\JJ	.	.	.	.	.	.	.	.	.	.
4E\	.	16gg\LL	16ee\LL	8r	.	8r	.	8r	.	8r	.	4g\	4e\
.	.	16gg\	16ee\	.	.	.	.	.	.	.	.	.	.
.	.	16ff#\	16dd\	8r	.	8r	.	8r	.	8r	.	.	.
.	.	16ff#\	16dd\	.	.	.	.	.	.	.	.	.	.
8r	.	16ee\	16cc#\	8AA/	in	8c#\	in	8e\	in	8ee\	in	8r	8r
.	.	16ee\JJ	32cc#\L	.	.	.	.	.	.	.	.	.	.
.	.	.	32cc#\JJJ	.	.	.	.	.	.	.	.	.	.
!	!	!	!	!	!	!	!	!LO:LB:g=original	!	!	!	!	!
=136	=136	=136	=136	=136	=136	=136	=136	=136	=136	=136	=136	=136	=136
4D/	.	4dd\	4aa\	4D\	Sem-	4d\	Sem-	4f#\	Sem-	4ff#\	Sem-	4d\	4f#\
8r	.	8r	8r	8E\	-pi-	8r	.	8g\	-pi-	8r	.	8r	8r
!	!	!	!	!LO:LB:g=original	!	!	!	!	!	!	!	!	!
4D/	.	4ff#\	4aa\	4F#\	-ter-	4d\	-pi-	4a\	-ter-	4ff#\	-pi-	4d\	4f#\
8r	.	8r	8r	8G\	-na	8r	.	8b\	-na	8r	.	8r	8r
4D/	.	4dd\	4aa\	4F#\	glo-	4d\	-ter-	4a\	Sae-	4ff#\	-ter-	4d\	4f#\
8r	.	8r	8r	8E\	-ri-	8r	.	8g\	-cu-	8r	.	8r	8r
4D/	.	4dd\	4aa\	4D/	-a	4d\	-na	4f#\	-la	4ff#\	-na	4d\	4f#\
*	*	*	*	*	*ij	*	*	*	*	*	*	*	*
8r	.	8r	8r	8AA/	in	8r	.	8e\	in	8r	.	8r	8r
=137	=137	=137	=137	=137	=137	=137	=137	=137	=137	=137	=137	=137	=137
!	!	!	!	!	!	!	!	!	!	!	!	!LO:TX:a:t=Problem&colon;brakujący takt	!
4D/	.	4ff#\	4aa\	4D\	Sem-	4d\	Sae-	4f#\	Sem-	4ff#\	Sae-	4d\yy	4f#\
8r	.	8r	8r	8E\	-pi-	8r	.	8g\	-pi-	8r	.	8ryy	8r
!	!	!	!	!	!	!LO:LB:g=original	!	!	!	!	!	!	!
4C#/	.	4dd\	4aa\	4F#\	-ter-	4d\	-cu-	4a\	-ter-	4ff#\	-cu-	4d\yy	4f#\
8r	.	8r	8r	8G\	-na	8r	.	8b\	-na	8r	.	8ryy	8r
!	!	!	!LO:LB:g=original	!	!	!	!	!	!	!	!	!	!
4D/	.	4dd\	4aa\	4F#\	glo-	4d\	-la	4a\	Sae-	4ff#\	-la	4d\yy	4f#\
8r	.	8r	8r	8E\	-ri-	8r	.	8g\	-cu-	8r	.	8ryy	8r
4D/	.	4dd\	4aa\	4D/	-a	4d\	in	4f#\	-la	4ff#\	in	4d\yy	4f#\
*	*	*	*	*	*Xij	*	*	*	*	*	*	*	*
8r	.	8r	8r	8AA/	in	8r	.	8e\	in	8r	.	8ryy	8r
=138	=138	=138	=138	=138	=138	=138	=138	=138	=138	=138	=138	=138	=138
8D\L	.	8dd\L	8ff#\L	4D/	Sem-	4f#\	Sem-	4f#\	Sem-	4a\	Sem-	8d\L	8f#\L
8F#\	6	8dd\	8ff#\	.	.	.	.	.	.	.	.	8d\	8f#\
*	*	*custos:cc#	*	*	*	*	*	*	*	*	*	*	*
8D\J	.	8dd\J	8ff#\J	8D/	-pi-	8f#\	-pi-	8f#\	-pi-	8a\	-pi-	8d\J	8f#\J
!	!	!LO:LB:g=original	!	!	!	!	!	!	!	!LO:LB:g=original	!	!	!
8AA/L	.	8cc#\L	8ee\L	4AA/	-ter-	4e\	-ter-	4e\	-ter-	4a\	-ter-	8A/L	8e\L
8C#/	6	8cc#\	8ee\	.	.	.	.	.	.	.	.	8A/	8e\
8AA/J	.	8cc#\J	8ee\J	8AA/	-na	8e\	-na	8e\	-na	8a\	-na	8A/J	8e\J
!LO:LB:g=original	!	!	!	!	!	!	!	!	!	!	!	!	!
8D/L	.	8dd\L	8ff#\L	8D/	Sae-	8e\	sae-	8f#\	sae-	8a\	sae-	8d\L	8f#\L
8D/	.	8dd\	8ff#\	8D/	-cu-	8e\	-cu-	8f#\	-cu-	8a\	-cu-	8d\	8f#\
8D/J	.	8dd\J	8ff#\J	8D/	-la	8e\	-la	8f#\	-la	8a\	-la	8d\J	8f#\J
!	!	!	!	!	!	!	!	!	!	!	!	!LO:TX:t=P:problem=mixed beam	!
8D/L	.	8dd\L	8ff#\L	4D/	a-	4f#\	a-	4f#\	a-	4a\	a-	8d\L	8f#\L
8D/	.	8dd\	8ff#\	.	.	.	.	.	.	.	.	8d\	8f#\
8AA/J	.	8cc#\J	8ee\J	8AA/	-men	8f#\	-men	8f#\	-men	8a\	-men	8A\J	8e\J
!	!	!	!	!	!	!	!	!	!	!	!	!LO:LB:g=original	!
=139	=139	=139	=139	=139	=139	=139	=139	=139	=139	=139	=139	=139	=139
16D\LL	.	16dd\LL	16ff#\LL	4D/	a-	4d\	a-	4f#\	a-	4ff#\	a-	8d\L	4f#\
16E\	.	16ff#\	16aa\	.	.	.	.	.	.	.	.	.	.
16F#\	6	16ff#\	16aa\	.	.	.	.	.	.	.	.	8f#\	.
16E\	.	16ff#\	16aa\	.	.	.	.	.	.	.	.	.	.
16F#\	6	16ff#\	16aa\	8D/	-men	8d\	-men	8a\	-men	8ff#\	-men	8d\J	8a\
16D\JJ	.	16ff#\JJ	16aa\JJ	.	.	.	.	.	.	.	.	.	.
!	!	!	!	!	!	!	!	!	!	!	!	!LO:TX:t=P:problem=mixed beam	!
*	*	*	*	*	*	*	*ij	*	*	*	*ij	*	*
!	!	!	!	!	!	!	!	!LO:LB:g=original	!	!	!	!	!
8AA/L	.	16cc#\LL	16ee\LL	4AA/	a-	4c#\	a-	4e\	a-	4ee\	a-	8A\L	4e\
.	.	16ee\	16aa\	.	.	.	.	.	.	.	.	.	.
8C#/	6	16ee\	16aa\	.	.	.	.	.	.	.	.	8e\	.
.	.	16ee\	16aa\	.	.	.	.	.	.	.	.	.	.
8AA/J	.	16ee\	16aa\	8AA/	-men	8c#\	-men	8a\	-men	8ee\	-men	8A\J	8a\
.	.	16ee\JJ	16aa\JJ	.	.	.	.	.	.	.	.	.	.
*	*	*	*	*	*	*	*Xij	*	*	*	*Xij	*	*
!	!	!	!	!LO:LB:g=original	!	!	!	!	!	!	!	!LO:TX:t=P:problem=mixed beam	!
8D\L	.	8dd\L	8ff#\L	8D\L	A-	(4d\	A-	4.a\	A-	(4ff#\	A-	8d\L	8f#\L
8F#\	.	8dd\	8ff#\	8F#\	.	.	.	.	.	.	.	8d\	8f#\
8A\J	6	8dd\J	8ee\J	8A\J	.	8c#\)	.	.	.	8ee\)	.	8A\J	8e\J
4D/	4:3	4dd\	4ff#\	4D/	-men.	4d\	-men.	8.a\	.	4ff#\	-men.	4d\	4f#\
!	!	!	!	!	!	!	!	!LO:N:vis=4	!	!	!	!	!
.	.	.	.	.	.	.	.	16a\	-men.	.	.	.	.
8r	.	8r	8r	8r	.	8r	.	8r	.	8r	.	8r	8r
==	==	==	==	==	==	==	==	==	==	==	==	==	==
*-	*-	*-	*-	*-	*-	*-	*-	*-	*-	*-	*-	*-	*-
!!!system-decoration: [(s1,s2)][(s3,s4,s5,s6)][([(s7,s8)]s9)]
!!!ENC: Tomasz Grochalski
!!!END: 2021-01-04
!!!ENC: Jan Barakat
!!!END: 2022-02-13
!!!YEC: Copyright 2022 Narodowy Instytut Fryderyka Chopina (https://polishscores.org)
!!!YEM: License CC-BY-4.0 (https://creativecommons.org/licenses/by/4.0)
